;Generated: 2021-05-01T11:58:24.543633
;[Project]
;Name = JW36
;Units = millimeters
;
;[RootChord]
;Profile = profiles/DS21.COR
;Width = 204
;LeadingEdgeOffset = 0
;Rotation = 0
;RotationPosition = 0.5
;
;[TipChord]
;Profile = profiles/DS21.COR
;Width = 109
;LeadingEdgeOffset = 22.8
;Rotation = 0
;RotationPosition = 0.5
;
;[Wing]
;TipChordSide = right
;Width = 456
;Inverted = no
;VerticalAlignProfiles = default
;Dihedral = 1
;StockLeadingEdge = 0
;StockTrailingEdge = 1
;
;[Placement]
;RootChordOffset = 300
;HorizontalOffset = 60
;VerticalOffsetRoot = 15
;RotateWing = no
;
;[Panel]
;Bottom = 0
;Height = 50
;Inset = 0
;Depth = 600
;SafeHeight = 60
;
;[Machine]
;Width = 1490
;Height = 400
;Depth = 490
;Feedrate = 160
;Kerf = 2,2
;
;[Gcode]
;GcodeWireOn = M3 S60
;GcodeWireOff = M5
;AxisMapping = X,Y,Z,A
;ConfigAsComment = yes
;InterpolationPoints = 200
;
;
F160.0
G17
G21
G90
G64 P0.50
G54
M3 S60
G0 Y60.0000000000 A60.0000000000
G0 X12.5000000000 Z248.4166666667
G0 Y55.0000000000 A55.0000000000
G1 X12.5000000000 Y14.9998854842 Z248.4166666667 A14.9998368802 F160
G4 P1.0000
G1 X13.5000000000 Y14.9998854842 Z249.4166666667 A14.9998368802
G4 P1.0000
G4 P1.0000
G1 X13.5000000000 Y16.9999604458 Z249.4166666667 A16.9999604458
G4 P1.0000
G1 X14.5034593007 Y17.1564813350 Z248.6456378091 A16.9091141668
G1 X15.8623573523 Y17.3509799855 Z248.4423491102 A16.8800680634
G1 X17.2213411926 Y17.5448782198 Z248.2390332450 A16.8512122372
G1 X18.5804171261 Y17.7381297019 Z248.0357026303 A16.8224606528
G1 X19.9397039536 Y17.9298915565 Z247.8323125037 A16.7941315281
G1 X21.2992345418 Y18.1199182798 Z247.6289106790 A16.7658877639
G1 X22.6589482885 Y18.3086289112 Z247.4254787815 A16.7378616415
G1 X24.0188360033 Y18.4960827619 Z247.2220337951 A16.7099310438
G1 X25.3789204598 Y18.6821025207 Z247.0185489316 A16.6822920301
G1 X26.7391855999 Y18.8667972989 Z246.8150472250 A16.6547777423
G1 X28.0996119127 Y19.0503007495 Z246.6115216203 A16.6274409009
G1 X29.4601938723 Y19.2326467218 Z246.4079763728 A16.6002508721
G1 X30.8209186660 Y19.4139239263 Z246.2044122888 A16.5732023392
G1 X32.1817804352 Y19.5941707306 Z246.0008323814 A16.5462731396
G1 X33.5428550962 Y19.7728030667 Z245.7972220354 A16.5195747718
G1 X34.9040300002 Y19.9506693474 Z245.5935974799 A16.4929851738
G1 X36.2653169177 Y20.1276754391 Z245.3899587484 A16.4665045235
G1 X37.6267211092 Y20.3037783323 Z245.1863067061 A16.4401261011
G1 X38.9883361917 Y20.4782435185 Z244.9826186436 A16.4140273993
G1 X40.3500735314 Y20.6517502498 Z244.7789201011 A16.3880108571
G1 X41.7119136307 Y20.8244493750 Z244.5752097122 A16.3620866930
G1 X43.0739131839 Y20.9958872681 Z244.3714641657 A16.3364406138
G1 X44.4360695502 Y21.1660720393 Z244.1677151261 A16.3108224488
G1 X45.7983335895 Y21.3353946839 Z243.9639543539 A16.2852960096
G1 X47.1608175699 Y21.5029391178 Z243.7601363186 A16.2602325390
G1 X48.5234125911 Y21.6695752650 Z243.5563309319 A16.2350656055
G1 X49.8861315512 Y21.8351976518 Z243.3524788425 A16.2102805760
G1 X51.2490549431 Y21.9991273732 Z243.1486302659 A16.1854664596
G1 X52.6120539937 Y22.1624272149 Z242.9447759312 A16.1606962656
G1 X53.9752598269 Y22.3239932714 Z242.7408499428 A16.1365268566
G1 X55.3385913881 Y22.4844896936 Z242.5369648096 A16.1120098705
G1 X56.7021057792 Y22.6434306876 Z242.3329926276 A16.0882334529
G1 X58.0658075183 Y22.8007513399 Z242.1290561874 A16.0641479145
G1 X59.4296115616 Y22.9571876161 Z241.9250568547 A16.0406045927
G1 X60.7935286422 Y23.1126346597 Z241.7210388702 A16.0172245020
G1 X62.1574683701 Y23.2678836434 Z241.5169397693 A15.9945525969
G1 X63.5211692401 Y23.4252166379 Z241.3129398110 A15.9710156881
G1 X64.8848276784 Y23.5829127443 Z241.1088045896 A15.9486363108
G1 X66.2480621157 Y23.7442372715 Z240.9048743025 A15.9245031993
G1 X67.6112128292 Y23.9062602203 Z240.7007892239 A15.9016613410
G1 X68.9739522150 Y24.0717144458 Z240.4969328207 A15.8769118779
G1 X70.3366677663 Y24.2373644374 Z240.2930393705 A15.8524667011
G1 X71.6992971349 Y24.4037222987 Z240.0891996276 A15.8275803941
G1 X73.0619906877 Y24.5695508045 Z239.8854591814 A15.8018751379
G1 X74.4248924001 Y24.7336625239 Z239.6815787090 A15.7773247398
G1 X75.7878828764 Y24.8970295987 Z239.4778504378 A15.7514975162
G1 X77.1511723929 Y25.0578880095 Z239.2739118684 A15.7274344952
G1 X78.5145233474 Y25.2182212991 Z239.0701063488 A15.7022342761
G1 X79.8781260482 Y25.3764028672 Z238.8661209575 A15.6785714531
G1 X81.2417701190 Y25.5342248023 Z238.6622739669 A15.6537055018
G1 X82.6056727382 Y25.6897991563 Z238.4582437124 A15.6304326787
G1 X83.9695916263 Y25.8452296704 Z238.2543605291 A15.6058595392
G1 X85.3337870657 Y25.9982150857 Z238.0502864946 A15.5829737906
G1 X86.6979654536 Y26.1513541129 Z237.8463987156 A15.5584101223
G1 X88.0625017651 Y26.3012687176 Z237.6422736629 A15.5359839787
G1 X89.4269920124 Y26.4516069043 Z237.4383313314 A15.5118776265
G1 X90.7918435382 Y26.5986229622 Z237.2341690251 A15.4897940486
G1 X92.1566743268 Y26.7458358103 Z237.0301251112 A15.4665975960
G1 X93.5217722629 Y26.8905424172 Z236.8259694640 A15.4444493690
G1 X94.8869137999 Y27.0348439848 Z236.6218357112 A15.4220798695
G1 X96.2522460928 Y27.1773203834 Z236.4176932889 A15.3997933204
G1 X97.6176918806 Y27.3187129916 Z236.2134715660 A15.3782570394
G1 X98.9832617325 Y27.4588928075 Z236.0093663578 A15.3555817638
G1 X100.3490439993 Y27.5969961520 Z235.8050549160 A15.3349225332
G1 X101.7148604907 Y27.7347572041 Z235.6009477456 A15.3122203162
G1 X103.0809483559 Y27.8698041547 Z235.3965905835 A15.2920183517
G1 X104.4470063861 Y28.0051560879 Z235.1924332698 A15.2697734724
G1 X105.8133673498 Y28.1374113368 Z234.9880352861 A15.2499887977
G1 X107.1796796911 Y28.2701753189 Z234.7838301716 A15.2281861484
G1 X108.5462957546 Y28.3997614797 Z234.5794434197 A15.2082839565
G1 X109.9129456066 Y28.5290009438 Z234.3751029333 A15.1878705987
G1 X111.2797597421 Y28.6564790118 Z234.1707499265 A15.1675914823
G1 X112.6467012386 Y28.7825942118 Z233.9663030911 A15.1483078190
G1 X114.0137042477 Y28.9080334643 Z233.7620054550 A15.1273846384
G1 X115.3809464159 Y29.0308446513 Z233.5574756195 A15.1090130453
G1 X116.7481543487 Y29.1540416746 Z233.3531713189 A15.0880996516
G1 X118.1156598105 Y29.2738855147 Z233.1486021012 A15.0701719008
G1 X119.4831215860 Y29.3942339019 Z232.9442061727 A15.0502427794
G1 X120.8508159449 Y29.5118961126 Z232.7396565722 A15.0320884602
G1 X122.2185373339 Y29.6292560829 Z232.5351742840 A15.0131173121
G1 X123.5864075737 Y29.7448495642 Z232.3306926962 A14.9941378491
G1 X124.9544409340 Y29.8585108626 Z232.1260827360 A14.9766673580
G1 X126.3224943881 Y29.9719263694 Z231.9216500437 A14.9570284765
G1 X127.6908138764 Y30.0820876696 Z231.7169590588 A14.9405491024
G1 X129.0590689460 Y30.1930618002 Z231.5125236015 A14.9208455012
G1 X130.4276419148 Y30.3000247059 Z231.3078088639 A14.9046658324
G1 X131.7961842231 Y30.4073954235 Z231.1032673699 A14.8862171365
G1 X133.1649367670 Y30.5120214955 Z230.8986176330 A14.8691815590
G1 X134.5337920760 Y30.6153192709 Z230.6939469939 A14.8523660624
G1 X135.9027247734 Y30.7175676089 Z230.4893627723 A14.8343786865
G1 X137.2718949182 Y30.8165983505 Z230.2845607109 A14.8193360405
G1 X138.6410111399 Y30.9163902206 Z230.0800264020 A14.8005140573
G1 X140.0104632370 Y31.0114411958 Z229.8751659918 A14.7862950064
G1 X141.3798556727 Y31.1073707403 Z229.6705422388 A14.7685909639
G1 X142.7494969810 Y31.1996354124 Z229.4657262718 A14.7537174435
G1 X144.1191877678 Y31.2911987636 Z229.2609793882 A14.7377183443
G1 X145.4890010064 Y31.3808734196 Z229.0562250438 A14.7218343193
G1 X146.8589906923 Y31.4678414309 Z228.8513547271 A14.7076800490
G1 X148.2289770567 Y31.5548633487 Z228.6466593215 A14.6906871182
G1 X149.5992616363 Y31.6370454939 Z228.4416743790 A14.6783931201
G1 X150.9694729265 Y31.7204856617 Z228.2369801513 A14.6611089660
G1 X152.3399820133 Y31.7988141175 Z228.0320015846 A14.6487055225
G1 X153.7104891868 Y31.8772297222 Z227.8271763950 A14.6334539325
G1 X155.0811637898 Y31.9525916148 Z227.6222479569 A14.6200854728
G1 X156.4519469375 Y32.0260122399 Z227.4173078924 A14.6067765059
G1 X157.8227851225 Y32.0983614239 Z227.2124222857 A14.5924073714
G1 X159.1938303901 Y32.1667009361 Z227.0073796436 A14.5810091556
G1 X160.5648285126 Y32.2360279558 Z226.8025402356 A14.5653539608
G1 X161.9361338027 Y32.2989210024 Z226.5974025987 A14.5559455071
G1 X163.3073768320 Y32.3632310942 Z226.3925119300 A14.5409161081
G1 X164.6788406577 Y32.4225159093 Z226.1874106617 A14.5306799072
G1 X166.0503340079 Y32.4812242983 Z225.9824114562 A14.5177417826
G1 X167.4219470018 Y32.5369476630 Z225.7773393371 A14.5066227939
G1 X168.7936664486 Y32.5900953624 Z225.5722518213 A14.4955695899
G1 X170.1654248279 Y32.6421653092 Z225.3672034195 A14.4834335938
G1 X171.5373579660 Y32.6894558773 Z225.1620345269 A14.4744014050
G1 X172.9092621002 Y32.7376525493 Z224.9569949386 A14.4613296695
G1 X174.2813888027 Y32.7789237740 Z224.7517569045 A14.4543475500
G1 X175.6534773832 Y32.8215653417 Z224.5466700879 A14.4419297362
G1 X177.0257299108 Y32.8583136574 Z224.3414240951 A14.4352336777
G1 X178.3979856500 Y32.8951936301 Z224.1362869793 A14.4236437445
G1 X179.7703482859 Y32.9275245533 Z223.9310514297 A14.4162427255
G1 X181.1427589440 Y32.9580644478 Z223.7258452002 A14.4065920184
G1 X182.5152236495 Y32.9857658122 Z223.5206067375 A14.3986341747
G1 X183.8877608384 Y33.0099205478 Z223.3153456345 A14.3908334250
G1 X185.2603162154 Y33.0328230939 Z223.1100935950 A14.3824086760
G1 X186.6329511874 Y33.0505253331 Z222.9047906597 A14.3763790998
G1 X188.0055840560 Y33.0684391620 Z222.6995151462 A14.3675912033
G1 X189.3782870440 Y33.0796572900 Z222.4941829747 A14.3630849022
G1 X190.7509842154 Y33.0920056647 Z222.2888738754 A14.3540952889
G1 X192.1237233901 Y33.0966931771 Z222.0835244919 A14.3509462470
G1 X193.4964647681 Y33.1021131592 Z221.8781741196 A14.3433856151
G1 X194.8692102408 Y33.1011895080 Z221.6728138189 A14.3406832353
G1 X196.2419629159 Y33.1003018900 Z221.4674262897 A14.3335241750
G1 X197.6146893106 Y33.0932907136 Z221.2620544052 A14.3312938646
G1 X198.9874203237 Y33.0854782588 Z221.0566310895 A14.3250064771
G1 X200.3600981656 Y33.0720317871 Z220.8512463981 A14.3233231779
G1 X201.7327716067 Y33.0571778893 Z220.6457873967 A14.3177715747
G1 X203.1053652627 Y33.0369150588 Z220.4403897397 A14.3166794472
G1 X204.4779369181 Y33.0145763218 Z220.2349088231 A14.3124620112
G1 X205.8504099207 Y32.9873059143 Z220.0294993901 A14.3120905281
G1 X207.2228486868 Y32.9578735259 Z219.8239845209 A14.3084407603
G1 X208.5951577073 Y32.9233169840 Z219.6185561698 A14.3085149123
G1 X209.9674132927 Y32.8862893719 Z219.4130104831 A14.3056219846
G1 X211.3395006566 Y32.8438197359 Z219.2075640447 A14.3063019947
G1 X212.7115164719 Y32.7987672973 Z219.0019996232 A14.3044852065
G1 X214.0833204233 Y32.7479285268 Z218.7965361723 A14.3058800331
G1 X215.4550466721 Y32.6947709148 Z218.5909514067 A14.3050053486
G1 X216.8264979899 Y32.6351348612 Z218.3854666614 A14.3070687101
G1 X218.1978757856 Y32.5736255135 Z218.1798629473 A14.3071282354
G1 X219.5688954149 Y32.5047091495 Z217.9743363408 A14.3095861940
G1 X220.9398659959 Y32.4346734455 Z217.7686876707 A14.3101257597
G1 X222.3103214140 Y32.3552695860 Z217.5631579255 A14.3137411377
G1 X223.6806938138 Y32.2744765601 Z217.3576083027 A14.3171187176
G1 X225.0505950004 Y32.1859205179 Z217.1519165321 A14.3195318191
G1 X226.4202743548 Y32.0941496929 Z216.9462862394 A14.3230930517
G1 X227.7894608258 Y31.9951626875 Z216.7406353561 A14.3272676055
G1 X229.1582513067 Y31.8909608908 Z216.5349940473 A14.3321318002
G1 X230.5266765495 Y31.7819390475 Z216.3293347469 A14.3373291011
G1 X231.8944369494 Y31.6649339830 Z216.1236375251 A14.3429855194
G1 X233.2619552413 Y31.5450422260 Z215.9178761599 A14.3483655724
G1 X234.6285093705 Y31.4146121962 Z215.7121968799 A14.3556168720
G1 X235.9946640048 Y31.2801377251 Z215.5063819069 A14.3620697723
G1 X237.3600468990 Y31.1379715937 Z215.3007803440 A14.3711542617
G1 X238.7245879712 Y30.9879690620 Z215.0949257660 A14.3789030422
G1 X240.0886542102 Y30.8336151130 Z214.8889702982 A14.3864402037
G1 X241.4513788449 Y30.6678672275 Z214.6834057940 A14.3979703730
G1 X242.8133783546 Y30.4962801019 Z214.4773555233 A14.4065899487
G1 X244.1746831743 Y30.3190848955 Z214.2711847695 A14.4151509775
G1 X245.5340418574 Y30.1276615275 Z214.0657159406 A14.4295430829
G1 X246.8926319579 Y29.9308500584 Z213.8595091839 A14.4398394497
G1 X248.2502326026 Y29.7271400411 Z213.6531445021 A14.4501178374
G1 X249.6054800396 Y29.5084742304 Z213.4478126198 A14.4675494565
G1 X250.9596297070 Y29.2830756226 Z213.2413239603 A14.4792549157
G1 X252.3123408890 Y29.0490818835 Z213.0346631482 A14.4911678397
G1 X253.6628027399 Y28.8023878087 Z212.8284113488 A14.5064867845
G1 X255.0108092932 Y28.5427507704 Z212.6225204993 A14.5245426679
G1 X256.3569506654 Y28.2735283816 Z212.4154374601 A14.5381658726
G1 X257.7007919602 Y27.9928861478 Z212.2078374752 A14.5510541102
G1 X259.0418928804 Y27.6992465673 Z211.9999278985 A14.5643505747
G1 X260.3787543796 Y27.3869565781 Z211.7927635233 A14.5825368078
G1 X261.7121886191 Y27.0603704074 Z211.5850246561 A14.6000568858
G1 X263.0417123335 Y26.7181777971 Z211.3765293953 A14.6166429357
G1 X264.3666186178 Y26.3584671704 Z211.1673603744 A14.6330418672
G1 X265.6862592667 Y25.9797595403 Z210.9571699146 A14.6486323934
G1 X266.9998472813 Y25.5804195602 Z210.7457357538 A14.6632983725
G1 X268.3062311040 Y25.1579476539 Z210.5329970194 A14.6775805413
G1 X269.6042917615 Y24.7103592549 Z210.3185000427 A14.6910022865
G1 X270.8926457312 Y24.2353206238 Z210.1016864534 A14.7030918731
G1 X272.1694366872 Y23.7297548115 Z209.8820703629 A14.7138872673
G1 X273.4325412589 Y23.1905137724 Z209.6586311521 A14.7226350263
G1 X274.6792253543 Y22.6137202922 Z209.4294889194 A14.7277094957
G1 X275.9011180155 Y21.9854338444 Z209.1922067622 A14.7294578298
G1 X277.0960286366 Y21.3064560422 Z208.9447760233 A14.7273260357
G1 X278.2502679661 Y20.5593584763 Z208.6810731317 A14.7209996980
G1 X279.3509910086 Y19.7332455930 Z208.3931245032 A14.7109273417
G1 X280.3492999367 Y18.7867801263 Z208.1028763288 A14.7313026896
G1 X281.1938576863 Y17.7027665141 Z207.8001712964 A14.7842184677
G1 X281.7935630405 Y16.4682378900 Z207.5559350731 A14.9112692554
G1 X282.0073129051 Y15.1156418188 Z207.5097962384 A15.1112959854
G4 P1.0000
G1 X282.0073129051 Y14.9833692697 Z207.5097962384 A14.9749266241
G4 P1.0000
G1 X283.0073129051 Y14.9833692697 Z208.5097962384 A14.9749266241
G4 P1.0000
G1 X282.0073129051 Y14.9833692697 Z207.5097962384 A14.9749266241
G1 X281.9951494798 Y14.7568432597 Z207.4976328131 A14.7524974264
G4 P1.0000
G1 X281.6863106071 Y13.4398348737 Z207.5631439446 A14.9489077233
G1 X280.9844841623 Y12.2810446921 Z207.8306004843 A15.0485845451
G1 X280.0190028373 Y11.3243312906 Z208.1707037692 A15.0455724702
G1 X278.8612243468 Y10.6001159849 Z208.5462012304 A14.9315355710
G1 X277.6136387327 Y10.0485802072 Z208.8827159674 A14.7854756981
G1 X276.3236987011 Y9.6106399472 Z209.1771910688 A14.6510460654
G1 X275.0095762771 Y9.2578513629 Z209.4443823855 A14.5307878220
G1 X273.6861373588 Y8.9505265450 Z209.6852890146 A14.4519913629
G1 X272.3562564580 Y8.6769127831 Z209.9125530683 A14.4003218218
G1 X271.0210630444 Y8.4325328734 Z210.1331621202 A14.3627192080
G1 X269.6814576589 Y8.2148183768 Z210.3500915481 A14.3322478470
G1 X268.3390208641 Y8.0165135982 Z210.5639491523 A14.3105106320
G1 X266.9943818042 Y7.8345329806 Z210.7757016909 A14.2956952246
G1 X265.6477502583 Y7.6682953360 Z210.9863812465 A14.2836334280
G1 X264.2994702859 Y7.5163285727 Z211.1963559311 A14.2729434622
G1 X262.9500131275 Y7.3756620280 Z211.4055268327 A14.2654212825
G1 X261.5996109949 Y7.2446941806 Z211.6140892013 A14.2606965661
G1 X260.2483940742 Y7.1225757663 Z211.8222701075 A14.2576375972
G1 X258.8964753357 Y7.0084934895 Z212.0301944441 A14.2556340694
G1 X257.5437927368 Y6.9037830403 Z212.2380817050 A14.2524291715
G1 X256.1904806027 Y6.8076974278 Z212.4459225090 A14.2479515551
G1 X254.8368070989 Y6.7171391647 Z212.6534362642 A14.2460584098
G1 X253.4827943199 Y6.6317383181 Z212.8607488698 A14.2460283728
G1 X252.1282153000 Y6.5556796051 Z213.0682293270 A14.2422249645
G1 X250.7734080551 Y6.4840930505 Z213.2755946869 A14.2389269025
G1 X249.4184560461 Y6.4154175183 Z213.4826481955 A14.2400478017
G1 X248.0630915468 Y6.3551879539 Z213.6898860947 A14.2368323392
G1 X246.7075835564 Y6.2985270353 Z213.8970701057 A14.2336334142
G1 X245.3519517947 Y6.2449574848 Z214.1040629419 A14.2336876810
G1 X243.9960459693 Y6.1986929899 Z214.3111854524 A14.2297522888
G1 X242.6400745290 Y6.1545890946 Z214.5182280123 A14.2269867122
G1 X241.2839430737 Y6.1156440335 Z214.7252159027 A14.2246936132
G1 X239.9277061117 Y6.0806731033 Z214.9322320299 A14.2206878886
G1 X238.5714038713 Y6.0483199310 Z215.1391693659 A14.2184580193
G1 X237.2149822550 Y6.0214149248 Z215.3461323341 A14.2141885712
G1 X235.8585419629 Y5.9955409724 Z215.5530474923 A14.2112922439
G1 X234.5020017261 Y5.9754852009 Z215.7599570799 A14.2072305709
G1 X233.1454480912 Y5.9565844181 Z215.9668539689 A14.2032654932
G1 X231.7888418366 Y5.9418650421 Z216.1737217195 A14.1996136750
G1 X230.4322175746 Y5.9291236457 Z216.3805874510 A14.1954270099
G1 X229.0755656324 Y5.9195719283 Z216.5874343891 A14.1913880264
G1 X227.7189025662 Y5.9121400097 Z216.7942721245 A14.1872819846
G1 X226.3622273423 Y5.9070531158 Z217.0010983124 A14.1832235016
G1 X225.0055471651 Y5.9045785793 Z217.2079150890 A14.1788529620
G1 X223.6488621413 Y5.9044159723 Z217.4147265181 A14.1738102323
G1 X222.2921812111 Y5.9064973926 Z217.6215262241 A14.1692685106
G1 X220.9355026489 Y5.9104625602 Z217.8283198722 A14.1641979012
G1 X219.5788335471 Y5.9164083760 Z218.0351055548 A14.1597457592
G1 X218.2221716358 Y5.9241374857 Z218.2418847201 A14.1545283649
G1 X216.8655231385 Y5.9336456353 Z218.4486590662 A14.1499359742
G1 X215.5088876223 Y5.9450923268 Z218.6554236698 A14.1442816273
G1 X214.1522661830 Y5.9578856329 Z218.8621886217 A14.1395448206
G1 X212.7956643597 Y5.9727799563 Z219.0689398545 A14.1336136915
G1 X211.4390735744 Y5.9884997744 Z219.2756977952 A14.1288221752
G1 X210.0825092491 Y6.0064656887 Z219.4824384303 A14.1227839691
G1 X208.7259527084 Y6.0249052243 Z219.6891891299 A14.1178265158
G1 X207.3694371957 Y6.0462496169 Z219.8959120186 A14.1110998493
G1 X206.0129196004 Y6.0674029810 Z220.1026551617 A14.1058765396
G1 X204.6564482534 Y6.0913657166 Z220.3093729063 A14.0993354226
G1 X203.2999727294 Y6.1150687697 Z220.5161072198 A14.0938243795
G1 X201.9435468892 Y6.1414521290 Z220.7228172745 A14.0872017975
G1 X200.5871264404 Y6.1681324967 Z220.9295294753 A14.0806974394
G1 X199.2307397977 Y6.1964237086 Z221.1362436057 A14.0745435323
G1 X197.8743762616 Y6.2258598528 Z221.3429353018 A14.0672780111
G1 X196.5180293477 Y6.2559840249 Z221.5496540578 A14.0614849630
G1 X195.1617250655 Y6.2880331368 Z221.7563322681 A14.0538648823
G1 X193.8054196760 Y6.3199942172 Z221.9630477447 A14.0479654544
G1 X192.4491714493 Y6.3543269309 Z222.1697190713 A14.0402761874
G1 X191.0929152266 Y6.3883260646 Z222.3764221150 A14.0339101212
G1 X189.7367207944 Y6.4247041250 Z222.5830874509 A14.0261640365
G1 X188.3805330513 Y6.4613420329 Z222.7897593113 A14.0186713969
G1 X187.0243769810 Y6.4990998149 Z222.9964389972 A14.0115900087
G1 X185.6682572073 Y6.5381775608 Z223.2030834427 A14.0032270682
G1 X184.3121384154 Y6.5772544007 Z223.4097771114 A13.9966897253
G1 X182.9560820810 Y6.6184723801 Z223.6164119351 A13.9881388266
G1 X181.6000143240 Y6.6592985451 Z223.8230920690 A13.9811421255
G1 X180.2440108150 Y6.7022058895 Z224.0297275383 A13.9727324213
G1 X178.8880121020 Y6.7452693600 Z224.2363756765 A13.9647351359
G1 X177.5320417603 Y6.7891967532 Z224.4430308469 A13.9570247072
G1 X176.1761110960 Y6.8343564797 Z224.6496474945 A13.9481178066
G1 X174.8201738559 Y6.8792978667 Z224.8563212856 A13.9409994046
G1 X173.4643141014 Y6.9265403005 Z225.0629202529 A13.9316595572
G1 X172.1084423708 Y6.9734270584 Z225.2695667254 A13.9237305579
G1 X170.7526193934 Y7.0216958616 Z225.4761865460 A13.9150739777
G1 X169.3968137602 Y7.0704592425 Z225.6828025680 A13.9063090773
G1 X168.0410191011 Y7.1195129231 Z225.8894446224 A13.8983084789
G1 X166.6852765032 Y7.1700004098 Z226.0960361307 A13.8889157989
G1 X165.3295197244 Y7.2200973444 Z226.3026838897 A13.8810723089
G1 X163.9738307671 Y7.2720001140 Z226.5092717133 A13.8716383669
G1 X162.6181426792 Y7.3239260535 Z226.7158831020 A13.8628324865
G1 X161.2624756678 Y7.3763909930 Z226.9225002801 A13.8542029819
G1 X159.9068436366 Y7.4297615734 Z227.1290867232 A13.8447777431
G1 X158.5511994524 Y7.4828168688 Z227.3357241032 A13.8366718921
G1 X157.1956343167 Y7.5378631134 Z227.5422847350 A13.8266330297
G1 X155.8400578227 Y7.5926232824 Z227.7488904215 A13.8177289335
G1 X154.4845131693 Y7.6481607416 Z227.9554825654 A13.8085076896
G1 X153.1289942943 Y7.7043305773 Z228.1620600356 A13.7989264835
G1 X151.7734714898 Y7.7604002456 Z228.3686739571 A13.7902431339
G1 X150.4180055213 Y7.8178333929 Z228.5752326964 A13.7802359834
G1 X149.0625283968 Y7.8749989080 Z228.7818356885 A13.7712904404
G1 X147.7070926829 Y7.9331354739 Z228.9884060681 A13.7615842625
G1 X146.3516749249 Y7.9916936543 Z229.1949757032 A13.7518606034
G1 X144.9962605678 Y8.0503257735 Z229.4015687207 A13.7426917160
G1 X143.6408982634 Y8.1101551092 Z229.6081112003 A13.7323604515
G1 X142.2855228040 Y8.1696818801 Z229.8147058612 A13.7232293611
G1 X140.9301922934 Y8.2302226199 Z230.0212588462 A13.7131589985
G1 X139.5748716735 Y8.2909865409 Z230.2278230811 A13.7033424885
G1 X138.2195639658 Y8.3520334185 Z230.4343940772 A13.6936866979
G1 X136.8643072007 Y8.4142076841 Z230.6409196282 A13.6830251852
G1 X135.5090364045 Y8.4760714321 Z230.8475008362 A13.6735953926
G1 X134.1538168839 Y8.5390487830 Z231.0540322608 A13.6630844035
G1 X132.7986003006 Y8.6020899265 Z231.2605875020 A13.6530906634
G1 X131.4434028501 Y8.6655376820 Z231.4671380728 A13.6430041445
G1 X130.0882445963 Y8.7298220182 Z231.6736604496 A13.6323158792
G1 X128.7330754154 Y8.7938731342 Z231.8802261710 A13.6225527211
G1 X127.3779765476 Y8.8593972614 Z232.0867236254 A13.6113594172
G1 X126.0228711782 Y8.9247851825 Z232.2932676465 A13.6011416534
G1 X124.6677978512 Y8.9908304589 Z232.4997899605 A13.5904826498
G1 X123.3127580430 Y9.0575646741 Z232.7062988708 A13.5795481456
G1 X121.9577115477 Y9.1241602468 Z232.9128434055 A13.5693470253
G1 X120.6027480830 Y9.1924296481 Z233.1193073260 A13.5575207858
G1 X119.2477663235 Y9.2603302429 Z233.3258438153 A13.5471574786
G1 X117.8928178886 Y9.3288916603 Z233.5323484673 A13.5361630101
G1 X116.5378837038 Y9.3977356781 Z233.7388602179 A13.5253093180
G1 X115.1829639502 Y9.4668595011 Z233.9453722161 A13.5144667392
G1 X113.8281169638 Y9.5374021853 Z234.1518265279 A13.5024993545
G1 X112.4732536453 Y9.6076264172 Z234.3583456234 A13.4917951634
G1 X111.1184531294 Y9.6790521940 Z234.5648037440 A13.4799243931
G1 X109.7636542893 Y9.7505100316 Z234.7713024851 A13.4688307805
G1 X108.4088868987 Y9.8225586066 Z234.9777789616 A13.4573218394
G1 X107.0541596721 Y9.8953627367 Z235.1842418439 A13.4455571663
G1 X105.6994261802 Y9.9680481100 Z235.3907386682 A13.4344318724
G1 X104.3447611076 Y10.0420003380 Z235.5971753095 A13.4221922276
G1 X102.9900823399 Y10.1156989852 Z235.8036662750 A13.4109584536
G1 X101.6354406432 Y10.1900754701 Z236.0101212482 A13.3990665673
G1 X100.2808065698 Y10.2645913455 Z236.2165967426 A13.3875499075
G1 X98.9261991118 Y10.3395869979 Z236.4230532005 A13.3756918486
G1 X97.5716368527 Y10.4153983336 Z236.6294920317 A13.3635156898
G1 X96.2170669386 Y10.4910712312 Z236.8359652925 A13.3519611514
G1 X94.8625392006 Y10.5674961615 Z237.0424034744 A13.3397811292
G1 X93.5080036595 Y10.6437819555 Z237.2488726088 A13.3281530146
G1 X92.1534811789 Y10.7202992738 Z237.4553290627 A13.3163001131
G1 X90.7989599436 Y10.7968386670 Z237.6617949751 A13.3046148800
G1 X89.4444444041 Y10.8734787324 Z237.8682561762 A13.2928464228
G1 X88.0899341331 Y10.9502119280 Z238.0747179985 A13.2810889441
G1 X86.7354298401 Y11.0270502739 Z238.2811767361 A13.2692774469
G1 X85.3809498785 Y11.1043168752 Z238.4876218512 A13.2572261799
G1 X84.0264658407 Y11.1815117301 Z238.6940831355 A13.2454595066
G1 X82.6719846153 Y11.2587559196 Z238.9005421753 A13.2336534616
G1 X81.3175029881 Y11.3359930627 Z239.1070030931 A13.2218803591
G1 X79.9630252280 Y11.4132979874 Z239.3134604812 A13.2100453866
G1 X78.6085476510 Y11.4906061239 Z239.5199207816 A13.1982614621
G1 X77.2540694275 Y11.5679029314 Z239.7263817097 A13.1864885369
G1 X75.8995909636 Y11.6451955266 Z239.9328422226 A13.1747083358
G1 X74.5450993693 Y11.7222574001 Z240.1393154236 A13.1631510889
G1 X73.1905958045 Y11.7991089325 Z240.3457849028 A13.1515284454
G1 X71.8360417164 Y11.8750560401 Z240.5522993551 A13.1407122158
G1 X70.4813978110 Y11.9493960822 Z240.7588268415 A13.1301292335
G1 X69.1266710864 Y12.0221513028 Z240.9654019988 A13.1204991996
G1 X67.7716674870 Y12.0896483688 Z241.1720720687 A13.1126717930
G1 X66.4166183472 Y12.1561066253 Z241.3786846600 A13.1039217661
G1 X65.0612138524 Y12.2150387711 Z241.5854478558 A13.0983614150
G1 X63.7058052157 Y12.2737545910 Z241.7920880670 A13.0903212113
G1 X62.3501463195 Y12.3264786146 Z241.9988360786 A13.0848618408
G1 X60.9944965258 Y12.3793809943 Z242.2054906187 A13.0772028640
G1 X59.6387583087 Y12.4299834121 Z242.4121778273 A13.0703935718
G1 X58.2830157794 Y12.4804600561 Z242.6188419168 A13.0629961188
G1 X56.9272334366 Y12.5298607470 Z242.8255143073 A13.0558229974
G1 X55.5714340827 Y12.5787859904 Z243.0321928412 A13.0488311659
G1 X54.2156021761 Y12.6268064984 Z243.2388664497 A13.0417024507
G1 X52.8597143763 Y12.6731987352 Z243.4455854360 A13.0359030263
G1 X51.5037838263 Y12.7183473551 Z243.6522672021 A13.0290208700
G1 X50.1477939539 Y12.7616654376 Z243.8589899976 A13.0234047756
G1 X48.7917852637 Y12.8044028516 Z244.0656836841 A13.0168904464
G1 X47.4357001832 Y12.8446427783 Z244.2724186447 A13.0117255240
G1 X46.0795972855 Y12.8842629147 Z244.4791407013 A13.0061749206
G1 X44.7234318200 Y12.9217012004 Z244.6858716846 A13.0009356146
G1 X43.3672229588 Y12.9574992649 Z244.8926221496 A12.9964660955
G1 X42.0109827475 Y12.9921192553 Z245.0993511329 A12.9911893528
G1 X40.6546610425 Y13.0233801009 Z245.3061184739 A12.9874937113
G1 X39.2983095701 Y13.0532861622 Z245.5128840683 A12.9838353345
G1 X37.9419178015 Y13.0813472478 Z245.7196361507 A12.9795583117
G1 X36.5854651739 Y13.1062702262 Z245.9264155530 A12.9766900128
G1 X35.2289781557 Y13.1291951952 Z246.1331973807 A12.9741069933
G1 X33.8724554773 Y13.1499864793 Z246.3399694158 A12.9709380798
G1 X32.5158752929 Y13.1666209973 Z246.5467625353 A12.9692932128
G1 X31.1592699010 Y13.1809415047 Z246.7535549947 A12.9678197800
G1 X29.8026387824 Y13.1925194397 Z246.9603495485 A12.9667865619
G1 X28.4459838234 Y13.2009505143 Z247.1671443488 A12.9660131267
G1 X27.0893099550 Y13.2056680820 Z247.3739402601 A12.9654580200
G1 X25.7326281024 Y13.2059766053 Z247.5807376965 A12.9660308835
G1 X24.3759514038 Y13.2024589203 Z247.7875324932 A12.9670729018
G1 X23.0192917590 Y13.1948415331 Z247.9943234438 A12.9686620311
G1 X21.6626638877 Y13.1828247970 Z248.2011087572 A12.9708484367
G1 X20.3060897384 Y13.1657954036 Z248.4078826790 A12.9739296415
G1 X18.9495892327 Y13.1436572177 Z248.6146493597 A12.9774208717
G1 X17.5931800743 Y13.1165430527 Z248.8214022507 A12.9816468185
G1 X16.2369081130 Y13.0832601470 Z249.0281359121 A12.9867287109
G1 X14.8807970408 Y13.0439664476 Z249.2348486740 A12.9925989006
G1 X13.5248480753 Y13.0000376368 Z249.4415147420 A13.0000376368
G4 P1.0000
G1 X13.5000000000 Y14.9998854842 Z249.4166666667 A14.9998368802
G1 X12.5000000000 Y14.9998854842 Z248.4166666667 A14.9998368802
G4 P1.0000
G1 Y55.0000000000 A55.0000000000
G4 P2.0000
G0 Y60.0000000000 A60.0000000000
G0 X12.5000000000 Z248.4166666667
G0 Y55.0000000000 A55.0000000000
G1 Y0.0000000000 A0.0000000000
G1 Y55.0000000000 A55.0000000000
G0 Y60.0000000000 A60.0000000000
M5
M30