;Generated: 2021-05-01T10:26:54.918689
;[Project]
;Name = JW36
;Units = millimeters
;
;[RootChord]
;Profile = profiles/DS21.COR
;Width = 204
;LeadingEdgeOffset = 0
;Rotation = 0
;RotationPosition = 0.5
;
;[TipChord]
;Profile = profiles/DS21.COR
;Width = 109
;LeadingEdgeOffset = 22.8
;Rotation = 0
;RotationPosition = 0.5
;
;[Wing]
;TipChordSide = left
;Width = 456
;Inverted = no
;VerticalAlignProfiles = default
;Dihedral = 1
;StockLeadingEdge = 0
;StockTrailingEdge = 1
;
;[Placement]
;RootChordOffset = 300
;HorizontalOffset = 60
;VerticalOffsetRoot = 15
;RotateWing = no
;
;[Panel]
;Bottom = 0
;Height = 50
;Inset = 0
;Depth = 600
;SafeHeight = 60
;
;[Machine]
;Width = 1490
;Height = 400
;Depth = 490
;Feedrate = 160
;Kerf = 2,2
;
;[Gcode]
;GcodeWireOn = M3 S60
;GcodeWireOff = M5
;AxisMapping = X,Y,Z,A
;ConfigAsComment = yes
;InterpolationPoints = 200
;
;
F160.0
G17
G21
G90
G64 P0.50
G54
M3 S60
G0 Y60.0000000000 A60.0000000000
G0 X248.4166666667 Z12.5000000000
G0 Y55.0000000000 A55.0000000000
G1 X248.4166666667 Y14.9998368802 Z12.5000000000 A14.9998854842 F160
G4 P1.0000
G1 X249.4166666667 Y14.9998368802 Z13.5000000000 A14.9998854842
G4 P1.0000
G4 P1.0000
G1 X249.4166666667 Y16.9999604458 Z13.5000000000 A16.9999604458
G4 P1.0000
G1 X248.6456378091 Y16.9091141668 Z14.5034593007 A17.1564813350
G1 X248.4423491102 Y16.8800680634 Z15.8623573523 A17.3509799855
G1 X248.2390332450 Y16.8512122372 Z17.2213411926 A17.5448782198
G1 X248.0357026303 Y16.8224606528 Z18.5804171261 A17.7381297019
G1 X247.8323125037 Y16.7941315281 Z19.9397039536 A17.9298915565
G1 X247.6289106790 Y16.7658877639 Z21.2992345418 A18.1199182798
G1 X247.4254787815 Y16.7378616415 Z22.6589482885 A18.3086289112
G1 X247.2220337951 Y16.7099310438 Z24.0188360033 A18.4960827619
G1 X247.0185489316 Y16.6822920301 Z25.3789204598 A18.6821025207
G1 X246.8150472250 Y16.6547777423 Z26.7391855999 A18.8667972989
G1 X246.6115216203 Y16.6274409009 Z28.0996119127 A19.0503007495
G1 X246.4079763728 Y16.6002508721 Z29.4601938723 A19.2326467218
G1 X246.2044122888 Y16.5732023392 Z30.8209186660 A19.4139239263
G1 X246.0008323814 Y16.5462731396 Z32.1817804352 A19.5941707306
G1 X245.7972220354 Y16.5195747718 Z33.5428550962 A19.7728030667
G1 X245.5935974799 Y16.4929851738 Z34.9040300002 A19.9506693474
G1 X245.3899587484 Y16.4665045235 Z36.2653169177 A20.1276754391
G1 X245.1863067061 Y16.4401261011 Z37.6267211092 A20.3037783323
G1 X244.9826186436 Y16.4140273993 Z38.9883361917 A20.4782435185
G1 X244.7789201011 Y16.3880108571 Z40.3500735314 A20.6517502498
G1 X244.5752097122 Y16.3620866930 Z41.7119136307 A20.8244493750
G1 X244.3714641657 Y16.3364406138 Z43.0739131839 A20.9958872681
G1 X244.1677151261 Y16.3108224488 Z44.4360695502 A21.1660720393
G1 X243.9639543539 Y16.2852960096 Z45.7983335895 A21.3353946839
G1 X243.7601363186 Y16.2602325390 Z47.1608175699 A21.5029391178
G1 X243.5563309319 Y16.2350656055 Z48.5234125911 A21.6695752650
G1 X243.3524788425 Y16.2102805760 Z49.8861315512 A21.8351976518
G1 X243.1486302659 Y16.1854664596 Z51.2490549431 A21.9991273732
G1 X242.9447759312 Y16.1606962656 Z52.6120539937 A22.1624272149
G1 X242.7408499428 Y16.1365268566 Z53.9752598269 A22.3239932714
G1 X242.5369648096 Y16.1120098705 Z55.3385913881 A22.4844896936
G1 X242.3329926276 Y16.0882334529 Z56.7021057792 A22.6434306876
G1 X242.1290561874 Y16.0641479145 Z58.0658075183 A22.8007513399
G1 X241.9250568547 Y16.0406045927 Z59.4296115616 A22.9571876161
G1 X241.7210388702 Y16.0172245020 Z60.7935286422 A23.1126346597
G1 X241.5169397693 Y15.9945525969 Z62.1574683701 A23.2678836434
G1 X241.3129398110 Y15.9710156881 Z63.5211692401 A23.4252166379
G1 X241.1088045896 Y15.9486363108 Z64.8848276784 A23.5829127443
G1 X240.9048743025 Y15.9245031993 Z66.2480621157 A23.7442372715
G1 X240.7007892239 Y15.9016613410 Z67.6112128292 A23.9062602203
G1 X240.4969328207 Y15.8769118779 Z68.9739522150 A24.0717144458
G1 X240.2930393705 Y15.8524667011 Z70.3366677663 A24.2373644374
G1 X240.0891996276 Y15.8275803941 Z71.6992971349 A24.4037222987
G1 X239.8854591814 Y15.8018751379 Z73.0619906877 A24.5695508045
G1 X239.6815787090 Y15.7773247398 Z74.4248924001 A24.7336625239
G1 X239.4778504378 Y15.7514975162 Z75.7878828764 A24.8970295987
G1 X239.2739118684 Y15.7274344952 Z77.1511723929 A25.0578880095
G1 X239.0701063488 Y15.7022342761 Z78.5145233474 A25.2182212991
G1 X238.8661209575 Y15.6785714531 Z79.8781260482 A25.3764028672
G1 X238.6622739669 Y15.6537055018 Z81.2417701190 A25.5342248023
G1 X238.4582437124 Y15.6304326787 Z82.6056727382 A25.6897991563
G1 X238.2543605291 Y15.6058595392 Z83.9695916263 A25.8452296704
G1 X238.0502864946 Y15.5829737906 Z85.3337870657 A25.9982150857
G1 X237.8463987156 Y15.5584101223 Z86.6979654536 A26.1513541129
G1 X237.6422736629 Y15.5359839787 Z88.0625017651 A26.3012687176
G1 X237.4383313314 Y15.5118776265 Z89.4269920124 A26.4516069043
G1 X237.2341690251 Y15.4897940486 Z90.7918435382 A26.5986229622
G1 X237.0301251112 Y15.4665975960 Z92.1566743268 A26.7458358103
G1 X236.8259694640 Y15.4444493690 Z93.5217722629 A26.8905424172
G1 X236.6218357112 Y15.4220798695 Z94.8869137999 A27.0348439848
G1 X236.4176932889 Y15.3997933204 Z96.2522460928 A27.1773203834
G1 X236.2134715660 Y15.3782570394 Z97.6176918806 A27.3187129916
G1 X236.0093663578 Y15.3555817638 Z98.9832617325 A27.4588928075
G1 X235.8050549160 Y15.3349225332 Z100.3490439993 A27.5969961520
G1 X235.6009477456 Y15.3122203162 Z101.7148604907 A27.7347572041
G1 X235.3965905835 Y15.2920183517 Z103.0809483559 A27.8698041547
G1 X235.1924332698 Y15.2697734724 Z104.4470063861 A28.0051560879
G1 X234.9880352861 Y15.2499887977 Z105.8133673498 A28.1374113368
G1 X234.7838301716 Y15.2281861484 Z107.1796796911 A28.2701753189
G1 X234.5794434197 Y15.2082839565 Z108.5462957546 A28.3997614797
G1 X234.3751029333 Y15.1878705987 Z109.9129456066 A28.5290009438
G1 X234.1707499265 Y15.1675914823 Z111.2797597421 A28.6564790118
G1 X233.9663030911 Y15.1483078190 Z112.6467012386 A28.7825942118
G1 X233.7620054550 Y15.1273846384 Z114.0137042477 A28.9080334643
G1 X233.5574756195 Y15.1090130453 Z115.3809464159 A29.0308446513
G1 X233.3531713189 Y15.0880996516 Z116.7481543487 A29.1540416746
G1 X233.1486021012 Y15.0701719008 Z118.1156598105 A29.2738855147
G1 X232.9442061727 Y15.0502427794 Z119.4831215860 A29.3942339019
G1 X232.7396565722 Y15.0320884602 Z120.8508159449 A29.5118961126
G1 X232.5351742840 Y15.0131173121 Z122.2185373339 A29.6292560829
G1 X232.3306926962 Y14.9941378491 Z123.5864075737 A29.7448495642
G1 X232.1260827360 Y14.9766673580 Z124.9544409340 A29.8585108626
G1 X231.9216500437 Y14.9570284765 Z126.3224943881 A29.9719263694
G1 X231.7169590588 Y14.9405491024 Z127.6908138764 A30.0820876696
G1 X231.5125236015 Y14.9208455012 Z129.0590689460 A30.1930618002
G1 X231.3078088639 Y14.9046658324 Z130.4276419148 A30.3000247059
G1 X231.1032673699 Y14.8862171365 Z131.7961842231 A30.4073954235
G1 X230.8986176330 Y14.8691815590 Z133.1649367670 A30.5120214955
G1 X230.6939469939 Y14.8523660624 Z134.5337920760 A30.6153192709
G1 X230.4893627723 Y14.8343786865 Z135.9027247734 A30.7175676089
G1 X230.2845607109 Y14.8193360405 Z137.2718949182 A30.8165983505
G1 X230.0800264020 Y14.8005140573 Z138.6410111399 A30.9163902206
G1 X229.8751659918 Y14.7862950064 Z140.0104632370 A31.0114411958
G1 X229.6705422388 Y14.7685909639 Z141.3798556727 A31.1073707403
G1 X229.4657262718 Y14.7537174435 Z142.7494969810 A31.1996354124
G1 X229.2609793882 Y14.7377183443 Z144.1191877678 A31.2911987636
G1 X229.0562250438 Y14.7218343193 Z145.4890010064 A31.3808734196
G1 X228.8513547271 Y14.7076800490 Z146.8589906923 A31.4678414309
G1 X228.6466593215 Y14.6906871182 Z148.2289770567 A31.5548633487
G1 X228.4416743790 Y14.6783931201 Z149.5992616363 A31.6370454939
G1 X228.2369801513 Y14.6611089660 Z150.9694729265 A31.7204856617
G1 X228.0320015846 Y14.6487055225 Z152.3399820133 A31.7988141175
G1 X227.8271763950 Y14.6334539325 Z153.7104891868 A31.8772297222
G1 X227.6222479569 Y14.6200854728 Z155.0811637898 A31.9525916148
G1 X227.4173078924 Y14.6067765059 Z156.4519469375 A32.0260122399
G1 X227.2124222857 Y14.5924073714 Z157.8227851225 A32.0983614239
G1 X227.0073796436 Y14.5810091556 Z159.1938303901 A32.1667009361
G1 X226.8025402356 Y14.5653539608 Z160.5648285126 A32.2360279558
G1 X226.5974025987 Y14.5559455071 Z161.9361338027 A32.2989210024
G1 X226.3925119300 Y14.5409161081 Z163.3073768320 A32.3632310942
G1 X226.1874106617 Y14.5306799072 Z164.6788406577 A32.4225159093
G1 X225.9824114562 Y14.5177417826 Z166.0503340079 A32.4812242983
G1 X225.7773393371 Y14.5066227939 Z167.4219470018 A32.5369476630
G1 X225.5722518213 Y14.4955695899 Z168.7936664486 A32.5900953624
G1 X225.3672034195 Y14.4834335938 Z170.1654248279 A32.6421653092
G1 X225.1620345269 Y14.4744014050 Z171.5373579660 A32.6894558773
G1 X224.9569949386 Y14.4613296695 Z172.9092621002 A32.7376525493
G1 X224.7517569045 Y14.4543475500 Z174.2813888027 A32.7789237740
G1 X224.5466700879 Y14.4419297362 Z175.6534773832 A32.8215653417
G1 X224.3414240951 Y14.4352336777 Z177.0257299108 A32.8583136574
G1 X224.1362869793 Y14.4236437445 Z178.3979856500 A32.8951936301
G1 X223.9310514297 Y14.4162427255 Z179.7703482859 A32.9275245533
G1 X223.7258452002 Y14.4065920184 Z181.1427589440 A32.9580644478
G1 X223.5206067375 Y14.3986341747 Z182.5152236495 A32.9857658122
G1 X223.3153456345 Y14.3908334250 Z183.8877608384 A33.0099205478
G1 X223.1100935950 Y14.3824086760 Z185.2603162154 A33.0328230939
G1 X222.9047906597 Y14.3763790998 Z186.6329511874 A33.0505253331
G1 X222.6995151462 Y14.3675912033 Z188.0055840560 A33.0684391620
G1 X222.4941829747 Y14.3630849022 Z189.3782870440 A33.0796572900
G1 X222.2888738754 Y14.3540952889 Z190.7509842154 A33.0920056647
G1 X222.0835244919 Y14.3509462470 Z192.1237233901 A33.0966931771
G1 X221.8781741196 Y14.3433856151 Z193.4964647681 A33.1021131592
G1 X221.6728138189 Y14.3406832353 Z194.8692102408 A33.1011895080
G1 X221.4674262897 Y14.3335241750 Z196.2419629159 A33.1003018900
G1 X221.2620544052 Y14.3312938646 Z197.6146893106 A33.0932907136
G1 X221.0566310895 Y14.3250064771 Z198.9874203237 A33.0854782588
G1 X220.8512463981 Y14.3233231779 Z200.3600981656 A33.0720317871
G1 X220.6457873967 Y14.3177715747 Z201.7327716067 A33.0571778893
G1 X220.4403897397 Y14.3166794472 Z203.1053652627 A33.0369150588
G1 X220.2349088231 Y14.3124620112 Z204.4779369181 A33.0145763218
G1 X220.0294993901 Y14.3120905281 Z205.8504099207 A32.9873059143
G1 X219.8239845209 Y14.3084407603 Z207.2228486868 A32.9578735259
G1 X219.6185561698 Y14.3085149123 Z208.5951577073 A32.9233169840
G1 X219.4130104831 Y14.3056219846 Z209.9674132927 A32.8862893719
G1 X219.2075640447 Y14.3063019947 Z211.3395006566 A32.8438197359
G1 X219.0019996232 Y14.3044852065 Z212.7115164719 A32.7987672973
G1 X218.7965361723 Y14.3058800331 Z214.0833204233 A32.7479285268
G1 X218.5909514067 Y14.3050053486 Z215.4550466721 A32.6947709148
G1 X218.3854666614 Y14.3070687101 Z216.8264979899 A32.6351348612
G1 X218.1798629473 Y14.3071282354 Z218.1978757856 A32.5736255135
G1 X217.9743363408 Y14.3095861940 Z219.5688954149 A32.5047091495
G1 X217.7686876707 Y14.3101257597 Z220.9398659959 A32.4346734455
G1 X217.5631579255 Y14.3137411377 Z222.3103214140 A32.3552695860
G1 X217.3576083027 Y14.3171187176 Z223.6806938138 A32.2744765601
G1 X217.1519165321 Y14.3195318191 Z225.0505950004 A32.1859205179
G1 X216.9462862394 Y14.3230930517 Z226.4202743548 A32.0941496929
G1 X216.7406353561 Y14.3272676055 Z227.7894608258 A31.9951626875
G1 X216.5349940473 Y14.3321318002 Z229.1582513067 A31.8909608908
G1 X216.3293347469 Y14.3373291011 Z230.5266765495 A31.7819390475
G1 X216.1236375251 Y14.3429855194 Z231.8944369494 A31.6649339830
G1 X215.9178761599 Y14.3483655724 Z233.2619552413 A31.5450422260
G1 X215.7121968799 Y14.3556168720 Z234.6285093705 A31.4146121962
G1 X215.5063819069 Y14.3620697723 Z235.9946640048 A31.2801377251
G1 X215.3007803440 Y14.3711542617 Z237.3600468990 A31.1379715937
G1 X215.0949257660 Y14.3789030422 Z238.7245879712 A30.9879690620
G1 X214.8889702982 Y14.3864402037 Z240.0886542102 A30.8336151130
G1 X214.6834057940 Y14.3979703730 Z241.4513788449 A30.6678672275
G1 X214.4773555233 Y14.4065899487 Z242.8133783546 A30.4962801019
G1 X214.2711847695 Y14.4151509775 Z244.1746831743 A30.3190848955
G1 X214.0657159406 Y14.4295430829 Z245.5340418574 A30.1276615275
G1 X213.8595091839 Y14.4398394497 Z246.8926319579 A29.9308500584
G1 X213.6531445021 Y14.4501178374 Z248.2502326026 A29.7271400411
G1 X213.4478126198 Y14.4675494565 Z249.6054800396 A29.5084742304
G1 X213.2413239603 Y14.4792549157 Z250.9596297070 A29.2830756226
G1 X213.0346631482 Y14.4911678397 Z252.3123408890 A29.0490818835
G1 X212.8284113488 Y14.5064867845 Z253.6628027399 A28.8023878087
G1 X212.6225204993 Y14.5245426679 Z255.0108092932 A28.5427507704
G1 X212.4154374601 Y14.5381658726 Z256.3569506654 A28.2735283816
G1 X212.2078374752 Y14.5510541102 Z257.7007919602 A27.9928861478
G1 X211.9999278985 Y14.5643505747 Z259.0418928804 A27.6992465673
G1 X211.7927635233 Y14.5825368078 Z260.3787543796 A27.3869565781
G1 X211.5850246561 Y14.6000568858 Z261.7121886191 A27.0603704074
G1 X211.3765293953 Y14.6166429357 Z263.0417123335 A26.7181777971
G1 X211.1673603744 Y14.6330418672 Z264.3666186178 A26.3584671704
G1 X210.9571699146 Y14.6486323934 Z265.6862592667 A25.9797595403
G1 X210.7457357538 Y14.6632983725 Z266.9998472813 A25.5804195602
G1 X210.5329970194 Y14.6775805413 Z268.3062311040 A25.1579476539
G1 X210.3185000427 Y14.6910022865 Z269.6042917615 A24.7103592549
G1 X210.1016864534 Y14.7030918731 Z270.8926457312 A24.2353206238
G1 X209.8820703629 Y14.7138872673 Z272.1694366872 A23.7297548115
G1 X209.6586311521 Y14.7226350263 Z273.4325412589 A23.1905137724
G1 X209.4294889194 Y14.7277094957 Z274.6792253543 A22.6137202922
G1 X209.1922067622 Y14.7294578298 Z275.9011180155 A21.9854338444
G1 X208.9447760233 Y14.7273260357 Z277.0960286366 A21.3064560422
G1 X208.6810731317 Y14.7209996980 Z278.2502679661 A20.5593584763
G1 X208.3931245032 Y14.7109273417 Z279.3509910086 A19.7332455930
G1 X208.1028763288 Y14.7313026896 Z280.3492999367 A18.7867801263
G1 X207.8001712964 Y14.7842184677 Z281.1938576863 A17.7027665141
G1 X207.5559350731 Y14.9112692554 Z281.7935630405 A16.4682378900
G1 X207.5097962384 Y15.1112959854 Z282.0073129051 A15.1156418188
G4 P1.0000
G1 X207.5097962384 Y14.9749266241 Z282.0073129051 A14.9833692697
G4 P1.0000
G1 X208.5097962384 Y14.9749266241 Z283.0073129051 A14.9833692697
G4 P1.0000
G1 X207.5097962384 Y14.9749266241 Z282.0073129051 A14.9833692697
G1 X207.4976328131 Y14.7524974264 Z281.9951494798 A14.7568432597
G4 P1.0000
G1 X207.5631439446 Y14.9489077233 Z281.6863106071 A13.4398348737
G1 X207.8306004843 Y15.0485845451 Z280.9844841623 A12.2810446921
G1 X208.1707037692 Y15.0455724702 Z280.0190028373 A11.3243312906
G1 X208.5462012304 Y14.9315355710 Z278.8612243468 A10.6001159849
G1 X208.8827159674 Y14.7854756981 Z277.6136387327 A10.0485802072
G1 X209.1771910688 Y14.6510460654 Z276.3236987011 A9.6106399472
G1 X209.4443823855 Y14.5307878220 Z275.0095762771 A9.2578513629
G1 X209.6852890146 Y14.4519913629 Z273.6861373588 A8.9505265450
G1 X209.9125530683 Y14.4003218218 Z272.3562564580 A8.6769127831
G1 X210.1331621202 Y14.3627192080 Z271.0210630444 A8.4325328734
G1 X210.3500915481 Y14.3322478470 Z269.6814576589 A8.2148183768
G1 X210.5639491523 Y14.3105106320 Z268.3390208641 A8.0165135982
G1 X210.7757016909 Y14.2956952246 Z266.9943818042 A7.8345329806
G1 X210.9863812465 Y14.2836334280 Z265.6477502583 A7.6682953360
G1 X211.1963559311 Y14.2729434622 Z264.2994702859 A7.5163285727
G1 X211.4055268327 Y14.2654212825 Z262.9500131275 A7.3756620280
G1 X211.6140892013 Y14.2606965661 Z261.5996109949 A7.2446941806
G1 X211.8222701075 Y14.2576375972 Z260.2483940742 A7.1225757663
G1 X212.0301944441 Y14.2556340694 Z258.8964753357 A7.0084934895
G1 X212.2380817050 Y14.2524291715 Z257.5437927368 A6.9037830403
G1 X212.4459225090 Y14.2479515551 Z256.1904806027 A6.8076974278
G1 X212.6534362642 Y14.2460584098 Z254.8368070989 A6.7171391647
G1 X212.8607488698 Y14.2460283728 Z253.4827943199 A6.6317383181
G1 X213.0682293270 Y14.2422249645 Z252.1282153000 A6.5556796051
G1 X213.2755946869 Y14.2389269025 Z250.7734080551 A6.4840930505
G1 X213.4826481955 Y14.2400478017 Z249.4184560461 A6.4154175183
G1 X213.6898860947 Y14.2368323392 Z248.0630915468 A6.3551879539
G1 X213.8970701057 Y14.2336334142 Z246.7075835564 A6.2985270353
G1 X214.1040629419 Y14.2336876810 Z245.3519517947 A6.2449574848
G1 X214.3111854524 Y14.2297522888 Z243.9960459693 A6.1986929899
G1 X214.5182280123 Y14.2269867122 Z242.6400745290 A6.1545890946
G1 X214.7252159027 Y14.2246936132 Z241.2839430737 A6.1156440335
G1 X214.9322320299 Y14.2206878886 Z239.9277061117 A6.0806731033
G1 X215.1391693659 Y14.2184580193 Z238.5714038713 A6.0483199310
G1 X215.3461323341 Y14.2141885712 Z237.2149822550 A6.0214149248
G1 X215.5530474923 Y14.2112922439 Z235.8585419629 A5.9955409724
G1 X215.7599570799 Y14.2072305709 Z234.5020017261 A5.9754852009
G1 X215.9668539689 Y14.2032654932 Z233.1454480912 A5.9565844181
G1 X216.1737217195 Y14.1996136750 Z231.7888418366 A5.9418650421
G1 X216.3805874510 Y14.1954270099 Z230.4322175746 A5.9291236457
G1 X216.5874343891 Y14.1913880264 Z229.0755656324 A5.9195719283
G1 X216.7942721245 Y14.1872819846 Z227.7189025662 A5.9121400097
G1 X217.0010983124 Y14.1832235016 Z226.3622273423 A5.9070531158
G1 X217.2079150890 Y14.1788529620 Z225.0055471651 A5.9045785793
G1 X217.4147265181 Y14.1738102323 Z223.6488621413 A5.9044159723
G1 X217.6215262241 Y14.1692685106 Z222.2921812111 A5.9064973926
G1 X217.8283198722 Y14.1641979012 Z220.9355026489 A5.9104625602
G1 X218.0351055548 Y14.1597457592 Z219.5788335471 A5.9164083760
G1 X218.2418847201 Y14.1545283649 Z218.2221716358 A5.9241374857
G1 X218.4486590662 Y14.1499359742 Z216.8655231385 A5.9336456353
G1 X218.6554236698 Y14.1442816273 Z215.5088876223 A5.9450923268
G1 X218.8621886217 Y14.1395448206 Z214.1522661830 A5.9578856329
G1 X219.0689398545 Y14.1336136915 Z212.7956643597 A5.9727799563
G1 X219.2756977952 Y14.1288221752 Z211.4390735744 A5.9884997744
G1 X219.4824384303 Y14.1227839691 Z210.0825092491 A6.0064656887
G1 X219.6891891299 Y14.1178265158 Z208.7259527084 A6.0249052243
G1 X219.8959120186 Y14.1110998493 Z207.3694371957 A6.0462496169
G1 X220.1026551617 Y14.1058765396 Z206.0129196004 A6.0674029810
G1 X220.3093729063 Y14.0993354226 Z204.6564482534 A6.0913657166
G1 X220.5161072198 Y14.0938243795 Z203.2999727294 A6.1150687697
G1 X220.7228172745 Y14.0872017975 Z201.9435468892 A6.1414521290
G1 X220.9295294753 Y14.0806974394 Z200.5871264404 A6.1681324967
G1 X221.1362436057 Y14.0745435323 Z199.2307397977 A6.1964237086
G1 X221.3429353018 Y14.0672780111 Z197.8743762616 A6.2258598528
G1 X221.5496540578 Y14.0614849630 Z196.5180293477 A6.2559840249
G1 X221.7563322681 Y14.0538648823 Z195.1617250655 A6.2880331368
G1 X221.9630477447 Y14.0479654544 Z193.8054196760 A6.3199942172
G1 X222.1697190713 Y14.0402761874 Z192.4491714493 A6.3543269309
G1 X222.3764221150 Y14.0339101212 Z191.0929152266 A6.3883260646
G1 X222.5830874509 Y14.0261640365 Z189.7367207944 A6.4247041250
G1 X222.7897593113 Y14.0186713969 Z188.3805330513 A6.4613420329
G1 X222.9964389972 Y14.0115900087 Z187.0243769810 A6.4990998149
G1 X223.2030834427 Y14.0032270682 Z185.6682572073 A6.5381775608
G1 X223.4097771114 Y13.9966897253 Z184.3121384154 A6.5772544007
G1 X223.6164119351 Y13.9881388266 Z182.9560820810 A6.6184723801
G1 X223.8230920690 Y13.9811421255 Z181.6000143240 A6.6592985451
G1 X224.0297275383 Y13.9727324213 Z180.2440108150 A6.7022058895
G1 X224.2363756765 Y13.9647351359 Z178.8880121020 A6.7452693600
G1 X224.4430308469 Y13.9570247072 Z177.5320417603 A6.7891967532
G1 X224.6496474945 Y13.9481178066 Z176.1761110960 A6.8343564797
G1 X224.8563212856 Y13.9409994046 Z174.8201738559 A6.8792978667
G1 X225.0629202529 Y13.9316595572 Z173.4643141014 A6.9265403005
G1 X225.2695667254 Y13.9237305579 Z172.1084423708 A6.9734270584
G1 X225.4761865460 Y13.9150739777 Z170.7526193934 A7.0216958616
G1 X225.6828025680 Y13.9063090773 Z169.3968137602 A7.0704592425
G1 X225.8894446224 Y13.8983084789 Z168.0410191011 A7.1195129231
G1 X226.0960361307 Y13.8889157989 Z166.6852765032 A7.1700004098
G1 X226.3026838897 Y13.8810723089 Z165.3295197244 A7.2200973444
G1 X226.5092717133 Y13.8716383669 Z163.9738307671 A7.2720001140
G1 X226.7158831020 Y13.8628324865 Z162.6181426792 A7.3239260535
G1 X226.9225002801 Y13.8542029819 Z161.2624756678 A7.3763909930
G1 X227.1290867232 Y13.8447777431 Z159.9068436366 A7.4297615734
G1 X227.3357241032 Y13.8366718921 Z158.5511994524 A7.4828168688
G1 X227.5422847350 Y13.8266330297 Z157.1956343167 A7.5378631134
G1 X227.7488904215 Y13.8177289335 Z155.8400578227 A7.5926232824
G1 X227.9554825654 Y13.8085076896 Z154.4845131693 A7.6481607416
G1 X228.1620600356 Y13.7989264835 Z153.1289942943 A7.7043305773
G1 X228.3686739571 Y13.7902431339 Z151.7734714898 A7.7604002456
G1 X228.5752326964 Y13.7802359834 Z150.4180055213 A7.8178333929
G1 X228.7818356885 Y13.7712904404 Z149.0625283968 A7.8749989080
G1 X228.9884060681 Y13.7615842625 Z147.7070926829 A7.9331354739
G1 X229.1949757032 Y13.7518606034 Z146.3516749249 A7.9916936543
G1 X229.4015687207 Y13.7426917160 Z144.9962605678 A8.0503257735
G1 X229.6081112003 Y13.7323604515 Z143.6408982634 A8.1101551092
G1 X229.8147058612 Y13.7232293611 Z142.2855228040 A8.1696818801
G1 X230.0212588462 Y13.7131589985 Z140.9301922934 A8.2302226199
G1 X230.2278230811 Y13.7033424885 Z139.5748716735 A8.2909865409
G1 X230.4343940772 Y13.6936866979 Z138.2195639658 A8.3520334185
G1 X230.6409196282 Y13.6830251852 Z136.8643072007 A8.4142076841
G1 X230.8475008362 Y13.6735953926 Z135.5090364045 A8.4760714321
G1 X231.0540322608 Y13.6630844035 Z134.1538168839 A8.5390487830
G1 X231.2605875020 Y13.6530906634 Z132.7986003006 A8.6020899265
G1 X231.4671380728 Y13.6430041445 Z131.4434028501 A8.6655376820
G1 X231.6736604496 Y13.6323158792 Z130.0882445963 A8.7298220182
G1 X231.8802261710 Y13.6225527211 Z128.7330754154 A8.7938731342
G1 X232.0867236254 Y13.6113594172 Z127.3779765476 A8.8593972614
G1 X232.2932676465 Y13.6011416534 Z126.0228711782 A8.9247851825
G1 X232.4997899605 Y13.5904826498 Z124.6677978512 A8.9908304589
G1 X232.7062988708 Y13.5795481456 Z123.3127580430 A9.0575646741
G1 X232.9128434055 Y13.5693470253 Z121.9577115477 A9.1241602468
G1 X233.1193073260 Y13.5575207858 Z120.6027480830 A9.1924296481
G1 X233.3258438153 Y13.5471574786 Z119.2477663235 A9.2603302429
G1 X233.5323484673 Y13.5361630101 Z117.8928178886 A9.3288916603
G1 X233.7388602179 Y13.5253093180 Z116.5378837038 A9.3977356781
G1 X233.9453722161 Y13.5144667392 Z115.1829639502 A9.4668595011
G1 X234.1518265279 Y13.5024993545 Z113.8281169638 A9.5374021853
G1 X234.3583456234 Y13.4917951634 Z112.4732536453 A9.6076264172
G1 X234.5648037440 Y13.4799243931 Z111.1184531294 A9.6790521940
G1 X234.7713024851 Y13.4688307805 Z109.7636542893 A9.7505100316
G1 X234.9777789616 Y13.4573218394 Z108.4088868987 A9.8225586066
G1 X235.1842418439 Y13.4455571663 Z107.0541596721 A9.8953627367
G1 X235.3907386682 Y13.4344318724 Z105.6994261802 A9.9680481100
G1 X235.5971753095 Y13.4221922276 Z104.3447611076 A10.0420003380
G1 X235.8036662750 Y13.4109584536 Z102.9900823399 A10.1156989852
G1 X236.0101212482 Y13.3990665673 Z101.6354406432 A10.1900754701
G1 X236.2165967426 Y13.3875499075 Z100.2808065698 A10.2645913455
G1 X236.4230532005 Y13.3756918486 Z98.9261991118 A10.3395869979
G1 X236.6294920317 Y13.3635156898 Z97.5716368527 A10.4153983336
G1 X236.8359652925 Y13.3519611514 Z96.2170669386 A10.4910712312
G1 X237.0424034744 Y13.3397811292 Z94.8625392006 A10.5674961615
G1 X237.2488726088 Y13.3281530146 Z93.5080036595 A10.6437819555
G1 X237.4553290627 Y13.3163001131 Z92.1534811789 A10.7202992738
G1 X237.6617949751 Y13.3046148800 Z90.7989599436 A10.7968386670
G1 X237.8682561762 Y13.2928464228 Z89.4444444041 A10.8734787324
G1 X238.0747179985 Y13.2810889441 Z88.0899341331 A10.9502119280
G1 X238.2811767361 Y13.2692774469 Z86.7354298401 A11.0270502739
G1 X238.4876218512 Y13.2572261799 Z85.3809498785 A11.1043168752
G1 X238.6940831355 Y13.2454595066 Z84.0264658407 A11.1815117301
G1 X238.9005421753 Y13.2336534616 Z82.6719846153 A11.2587559196
G1 X239.1070030931 Y13.2218803591 Z81.3175029881 A11.3359930627
G1 X239.3134604812 Y13.2100453866 Z79.9630252280 A11.4132979874
G1 X239.5199207816 Y13.1982614621 Z78.6085476510 A11.4906061239
G1 X239.7263817097 Y13.1864885369 Z77.2540694275 A11.5679029314
G1 X239.9328422226 Y13.1747083358 Z75.8995909636 A11.6451955266
G1 X240.1393154236 Y13.1631510889 Z74.5450993693 A11.7222574001
G1 X240.3457849028 Y13.1515284454 Z73.1905958045 A11.7991089325
G1 X240.5522993551 Y13.1407122158 Z71.8360417164 A11.8750560401
G1 X240.7588268415 Y13.1301292335 Z70.4813978110 A11.9493960822
G1 X240.9654019988 Y13.1204991996 Z69.1266710864 A12.0221513028
G1 X241.1720720687 Y13.1126717930 Z67.7716674870 A12.0896483688
G1 X241.3786846600 Y13.1039217661 Z66.4166183472 A12.1561066253
G1 X241.5854478558 Y13.0983614150 Z65.0612138524 A12.2150387711
G1 X241.7920880670 Y13.0903212113 Z63.7058052157 A12.2737545910
G1 X241.9988360786 Y13.0848618408 Z62.3501463195 A12.3264786146
G1 X242.2054906187 Y13.0772028640 Z60.9944965258 A12.3793809943
G1 X242.4121778273 Y13.0703935718 Z59.6387583087 A12.4299834121
G1 X242.6188419168 Y13.0629961188 Z58.2830157794 A12.4804600561
G1 X242.8255143073 Y13.0558229974 Z56.9272334366 A12.5298607470
G1 X243.0321928412 Y13.0488311659 Z55.5714340827 A12.5787859904
G1 X243.2388664497 Y13.0417024507 Z54.2156021761 A12.6268064984
G1 X243.4455854360 Y13.0359030263 Z52.8597143763 A12.6731987352
G1 X243.6522672021 Y13.0290208700 Z51.5037838263 A12.7183473551
G1 X243.8589899976 Y13.0234047756 Z50.1477939539 A12.7616654376
G1 X244.0656836841 Y13.0168904464 Z48.7917852637 A12.8044028516
G1 X244.2724186447 Y13.0117255240 Z47.4357001832 A12.8446427783
G1 X244.4791407013 Y13.0061749206 Z46.0795972855 A12.8842629147
G1 X244.6858716846 Y13.0009356146 Z44.7234318200 A12.9217012004
G1 X244.8926221496 Y12.9964660955 Z43.3672229588 A12.9574992649
G1 X245.0993511329 Y12.9911893528 Z42.0109827475 A12.9921192553
G1 X245.3061184739 Y12.9874937113 Z40.6546610425 A13.0233801009
G1 X245.5128840683 Y12.9838353345 Z39.2983095701 A13.0532861622
G1 X245.7196361507 Y12.9795583117 Z37.9419178015 A13.0813472478
G1 X245.9264155530 Y12.9766900128 Z36.5854651739 A13.1062702262
G1 X246.1331973807 Y12.9741069933 Z35.2289781557 A13.1291951952
G1 X246.3399694158 Y12.9709380798 Z33.8724554773 A13.1499864793
G1 X246.5467625353 Y12.9692932128 Z32.5158752929 A13.1666209973
G1 X246.7535549947 Y12.9678197800 Z31.1592699010 A13.1809415047
G1 X246.9603495485 Y12.9667865619 Z29.8026387824 A13.1925194397
G1 X247.1671443488 Y12.9660131267 Z28.4459838234 A13.2009505143
G1 X247.3739402601 Y12.9654580200 Z27.0893099550 A13.2056680820
G1 X247.5807376965 Y12.9660308835 Z25.7326281024 A13.2059766053
G1 X247.7875324932 Y12.9670729018 Z24.3759514038 A13.2024589203
G1 X247.9943234438 Y12.9686620311 Z23.0192917590 A13.1948415331
G1 X248.2011087572 Y12.9708484367 Z21.6626638877 A13.1828247970
G1 X248.4078826790 Y12.9739296415 Z20.3060897384 A13.1657954036
G1 X248.6146493597 Y12.9774208717 Z18.9495892327 A13.1436572177
G1 X248.8214022507 Y12.9816468185 Z17.5931800743 A13.1165430527
G1 X249.0281359121 Y12.9867287109 Z16.2369081130 A13.0832601470
G1 X249.2348486740 Y12.9925989006 Z14.8807970408 A13.0439664476
G1 X249.4415147420 Y13.0000376368 Z13.5248480753 A13.0000376368
G4 P1.0000
G1 X249.4166666667 Y14.9998368802 Z13.5000000000 A14.9998854842
G1 X248.4166666667 Y14.9998368802 Z12.5000000000 A14.9998854842
G4 P1.0000
G1 Y55.0000000000 A55.0000000000
G4 P2.0000
G0 Y60.0000000000 A60.0000000000
G0 X248.4166666667 Z12.5000000000
G0 Y55.0000000000 A55.0000000000
G1 Y0.0000000000 A0.0000000000
G1 Y55.0000000000 A55.0000000000
G0 Y60.0000000000 A60.0000000000
M5
M30