;Generated: 2021-06-05T13:07:59.754901
;[Project]
;Name = JW48_left_1.25
;Units = millimeters
;
;[RootChord]
;Profile = profiles/DS21.COR
;Width = 262
;LeadingEdgeOffset = 0
;Rotation = 0
;RotationPosition = 0.5
;
;[TipChord]
;Profile = profiles/DS21.COR
;Width = 145
;LeadingEdgeOffset = 30.4
;Rotation = 0
;RotationPosition = 0.5
;
;[Wing]
;TipChordSide = right
;Width = 610
;Inverted = no
;VerticalAlignProfiles = default
;Dihedral = 0
;StockLeadingEdge = 0
;StockTrailingEdge = 0.1
;
;[Placement]
;RootChordOffset = 300
;HorizontalOffset = 60
;VerticalOffsetRoot = 25
;RotateWing = no
;
;[Panel]
;Bottom = 0
;Height = 50
;Inset = 0
;Depth = 450
;SafeHeight = 60
;
;[Machine]
;Width = 1490
;Height = 400
;Depth = 490
;Feedrate = 160
;Kerf = 1.25,1.25
;
;[Gcode]
;GcodeWireOn = M3 S60
;GcodeWireOff = M5
;AxisMapping = X,Y,Z,A
;ConfigAsComment = yes
;InterpolationPoints = 200
;
;
G17
G21
G90
G64 P0.50
G54
M3 S60
G1 F160.0
G0 Y60.0000000000 A60.0000000000
G0 X17.4098360656 Z228.9409836066
G0 Y55.0000000000 A55.0000000000
G1 X17.4098360656 Y24.9999368254 Z228.9409836066 A24.9999162455
G4 P1.0000
G1 X18.4098360656 Y24.9999368254 Z229.9409836066 A24.9999162455
G4 P1.0000
G4 P1.0000
G1 X18.4098360656 Y26.2499752786 Z229.9409836066 A26.2499752786
G4 P1.0000
G1 X19.9114588817 Y26.4696030045 Z229.8089729103 A26.2420241850
G1 X21.5306284173 Y26.7014280456 Z229.9899266912 A26.2678924716
G1 X23.1499205411 Y26.9323951904 Z230.1708785679 A26.2937740710
G1 X24.7693238696 Y27.1625810525 Z230.3518418066 A26.3195761538
G1 X26.3889974948 Y27.3908563661 Z230.5328186127 A26.3452834505
G1 X28.0089379790 Y27.6172310329 Z230.7138440323 A26.3706456364
G1 X29.6291037303 Y27.8419866862 Z230.8948899092 A26.3958612849
G1 X31.2494703754 Y28.0652905674 Z231.0759644971 A26.4208699340
G1 X32.8700766130 Y28.2868475585 Z231.2570608037 A26.4457206605
G1 X34.4908931091 Y28.5068620947 Z231.4381855347 A26.4703634648
G1 X36.1119015499 Y28.7254574534 Z231.6193318150 A26.4948473270
G1 X37.7330936542 Y28.9426866233 Z231.8005003796 A26.5191657860
G1 X39.3544547033 Y29.1586513780 Z231.9816890467 A26.5433340620
G1 X40.9759791675 Y29.3733865399 Z232.1628967280 A26.5673595063
G1 X42.5977516075 Y29.5862411746 Z232.3441358001 A26.5911468990
G1 X44.2196456004 Y29.7981669593 Z232.5253873382 A26.6148390318
G1 X45.8416717898 Y30.0090775224 Z232.7066548962 A26.6384081786
G1 X47.4638356282 Y30.2189281078 Z232.8879398821 A26.6618429801
G1 X49.0862529624 Y30.4268101320 Z233.0692510324 A26.6850745978
G1 X50.7088121171 Y30.6335803323 Z233.2505818066 A26.7081523710
G1 X52.3314919782 Y30.8394022361 Z233.4319277715 A26.7311104472
G1 X53.9543674099 Y31.0436772367 Z233.6132901301 A26.7539388538
G1 X55.5774198416 Y31.2465377974 Z233.7946819173 A26.7765320914
G1 X57.2005984171 Y31.4483894312 Z233.9760899121 A26.7989946080
G1 X58.8240510731 Y31.6480251407 Z234.1575167673 A26.8213046390
G1 X60.4476216134 Y31.8466965850 Z234.3389709304 A26.8433912982
G1 X62.0713545948 Y32.0440393014 Z234.5204291157 A26.8654450569
G1 X63.6953125970 Y32.2395188784 Z234.7019299725 A26.8871455021
G1 X65.3193588970 Y32.4342653723 Z234.8834428490 A26.9087441413
G1 X66.9436716538 Y32.6267777372 Z235.0649658383 A26.9302579886
G1 X68.5681048010 Y32.8182658788 Z235.2465311052 A26.9514121591
G1 X70.1927852334 Y33.0076502365 Z235.4280951668 A26.9725765818
G1 X71.8176574518 Y33.1953758691 Z235.6097114695 A26.9932891819
G1 X73.4426881048 Y33.3817312273 Z235.7913146469 A27.0141153012
G1 X75.0678282019 Y33.5671287969 Z235.9729448722 A27.0347047140
G1 X76.6930101277 Y33.7521603286 Z236.1545617616 A27.0554107510
G1 X78.3179492387 Y33.9393103908 Z236.3361274165 A27.0765638076
G1 X79.9428680268 Y34.1266404818 Z236.5176520396 A27.0980641004
G1 X81.5672178609 Y34.3188394323 Z236.6991769270 A27.1195621361
G1 X83.1915473438 Y34.5112087956 Z236.8806210163 A27.1417337763
G1 X84.8153044012 Y34.7083533142 Z237.0620818139 A27.1637660304
G1 X86.4390531698 Y34.9055659130 Z237.2435220106 A27.1859674909
G1 X88.0626790418 Y35.1037879361 Z237.4249682429 A27.2081193774
G1 X89.6863277251 Y35.3018218239 Z237.6064696132 A27.2298165156
G1 X91.3102780999 Y35.4973675289 Z237.7879521152 A27.2516692669
G1 X92.9342526368 Y35.6927105372 Z237.9695172642 A27.2728286884
G1 X94.5586651354 Y35.8843794627 Z238.1510513705 A27.2942485281
G1 X96.1830807514 Y36.0760217422 Z238.3326545089 A27.3150783383
G1 X97.8078664078 Y36.2645012194 Z238.5142303303 A27.3361416324
G1 X99.4326360332 Y36.4531200553 Z238.6958697413 A27.3566521365
G1 X101.0577731180 Y36.6385445371 Z238.8774892832 A27.3773353655
G1 X102.6829066680 Y36.8240011523 Z239.0591426054 A27.3977193679
G1 X104.3083537694 Y37.0066855360 Z239.2408259287 A27.4178381185
G1 X105.9338439808 Y37.1889890533 Z239.4224874472 A27.4381485232
G1 X107.5596329010 Y37.3686015961 Z239.6042571678 A27.4574841680
G1 X109.1855309908 Y37.5472306649 Z239.7859573079 A27.4774466424
G1 X110.8116582430 Y37.7237524754 Z239.9677727560 A27.4963488044
G1 X112.4379462979 Y37.8987956264 Z240.1495164732 A27.5159105666
G1 X114.0643864808 Y38.0724115920 Z240.3313634496 A27.5345036039
G1 X115.6910312644 Y38.2441080995 Z240.5131470369 A27.5536913264
G1 X117.3177618106 Y38.4149840221 Z240.6950288341 A27.5719393670
G1 X118.9447558541 Y38.5833387823 Z240.8768514606 A27.5907535575
G1 X120.5717677658 Y38.7515188703 Z241.0587793439 A27.6085388057
G1 X122.1991504611 Y38.9160743481 Z241.2406453928 A27.6269285189
G1 X123.8265168276 Y39.0807931371 Z241.4225762130 A27.6446704318
G1 X125.4542175673 Y39.2421677432 Z241.6045123291 A27.6623593786
G1 X127.0819643973 Y39.4030813846 Z241.7864190691 A27.6803421272
G1 X128.7099048067 Y39.5620161959 Z241.9684417954 A27.6971392256
G1 X130.3379770290 Y39.7196035729 Z242.1503849143 A27.7147500965
G1 X131.9661794345 Y39.8758288547 Z242.3324560845 A27.7310211765
G1 X133.5946273451 Y40.0294854358 Z242.5144411711 A27.7481929419
G1 X135.2231028853 Y40.1828457811 Z242.6965324594 A27.7642260447
G1 X136.8518787037 Y40.3329866352 Z242.8785542024 A27.7810047927
G1 X138.4806353615 Y40.4833380402 Z243.0606519487 A27.7969483558
G1 X140.1097107754 Y40.6301867068 Z243.2427422316 A27.8129739343
G1 X141.7388330013 Y40.7765209661 Z243.4248026781 A27.8293273767
G1 X143.3681195364 Y40.9210034432 Z243.6069879280 A27.8442742730
G1 X144.9975554847 Y41.0638020180 Z243.7890834364 A27.8602325651
G1 X146.6270587117 Y41.2058235719 Z243.9712900935 A27.8749071675
G1 X148.2567891440 Y41.3452210632 Z244.1534185240 A27.8904852319
G1 X149.8864936758 Y41.4849259284 Z244.3356703015 A27.9045994738
G1 X151.5165705679 Y41.6202118052 Z244.5178374383 A27.9197181888
G1 X153.1466386721 Y41.7556051775 Z244.7000394336 A27.9344105050
G1 X154.7769269117 Y41.8883057913 Z244.8823183251 A27.9481622055
G1 X156.4073328017 Y42.0195672734 Z245.0645222307 A27.9628311548
G1 X158.0378358211 Y42.1496031847 Z245.2468625662 A27.9757786425
G1 X159.6685642691 Y42.2767946607 Z245.4291025252 A27.9899926711
G1 X161.2992867398 Y42.4040641694 Z245.6114813017 A28.0023944261
G1 X162.9303624492 Y42.5267221196 Z245.7937600645 A28.0161018660
G1 X164.5614213140 Y42.6496084940 Z245.9761056443 A28.0289032231
G1 X166.1927448046 Y42.7689063682 Z246.1584877857 A28.0412087805
G1 X167.8241693370 Y42.8868340471 Z246.3408055267 A28.0543876491
G1 X169.4557065060 Y43.0031718578 Z246.5232768846 A28.0653982098
G1 X171.0874619409 Y43.1164288359 Z246.7056316092 A28.0780550535
G1 X172.7192236596 Y43.2295932800 Z246.8881321410 A28.0885647569
G1 X174.3513100862 Y43.3379761136 Z247.0705238557 A28.1006768865
G1 X175.9833740793 Y43.4467049609 Z247.2530045566 A28.1114164952
G1 X177.6157148158 Y43.5511653277 Z247.4354825733 A28.1221975036
G1 X179.2481328194 Y43.6544339297 Z247.6179113428 A28.1337380984
G1 X180.8806767570 Y43.7556587354 Z247.8005065150 A28.1425781224
G1 X182.5134241267 Y43.8535820181 Z247.9829720926 A28.1535213527
G1 X184.1461941082 Y43.9511171666 Z248.1655945972 A28.1617709123
G1 X185.7792669764 Y44.0434532365 Z248.3480965467 A28.1720898133
G1 X187.4123115569 Y44.1363052390 Z248.5307107039 A28.1803621815
G1 X189.0456457997 Y44.2238741505 Z248.7132751886 A28.1895405139
G1 X190.6790162487 Y44.3107928793 Z248.8958441578 A28.1985967043
G1 X192.3125381586 Y44.3947630312 Z249.0785081801 A28.2058024390
G1 X193.9462094242 Y44.4758255900 Z249.2610770086 A28.2148613649
G1 X195.5799298431 Y44.5558585810 Z249.4438002448 A28.2206860462
G1 X197.2138934306 Y44.6307981380 Z249.6264017377 A28.2290607744
G1 X198.8478249975 Y44.7064664777 Z249.8091434375 A28.2342444245
G1 X200.4820646637 Y44.7751225482 Z249.9917757813 A28.2419169917
G1 X202.1162861500 Y44.8442321922 Z250.1744802384 A28.2477903842
G1 X203.7506979043 Y44.9085947942 Z250.3571919712 A28.2534822497
G1 X205.3851860718 Y44.9710615698 Z250.5398679414 A28.2600242221
G1 X207.0197650208 Y45.0310152744 Z250.7226522978 A28.2635657739
G1 X208.6544962755 Y45.0867527616 Z250.9053395803 A28.2697945852
G1 X210.2892485905 Y45.1418323157 Z251.0881500892 A28.2721737337
G1 X211.9241979428 Y45.1907563189 Z251.2708617435 A28.2776411531
G1 X213.5591208722 Y45.2406301182 Z251.4536782083 A28.2793410480
G1 X215.1942610744 Y45.2826938371 Z251.6364115127 A28.2840302213
G1 X216.8293861562 Y45.3254038311 Z251.8192062141 A28.2861048149
G1 X218.4646508407 Y45.3621729646 Z252.0019877171 A28.2887410655
G1 X220.0999550415 Y45.3973270551 Z252.1847662854 A28.2912380408
G1 X221.7353326682 Y45.4286248720 Z252.3675803391 A28.2918713455
G1 X223.3707822075 Y45.4561604271 Z252.5503515235 A28.2946984361
G1 X225.0062594956 Y45.4817855802 Z252.7331829764 A28.2933762404
G1 X226.6418179458 Y45.5018230034 Z252.9159626996 A28.2956154550
G1 X228.2773815079 Y45.5213462713 Z253.0987885492 A28.2932149932
G1 X229.9130150497 Y45.5338306423 Z253.2815766653 A28.2946099458
G1 X231.5486450110 Y45.5470107487 Z253.4643901869 A28.2910682423
G1 X233.1843204107 Y45.5513615430 Z253.6471829786 A28.2915546351
G1 X234.8199954787 Y45.5567789273 Z253.8299770859 A28.2878102208
G1 X236.4556730759 Y45.5540635443 Z254.0127702671 A28.2870435209
G1 X238.0913552836 Y45.5516956065 Z254.1955457999 A28.2828409086
G1 X239.7270032761 Y45.5418506386 Z254.3783293883 A28.2803987745
G1 X241.3626512001 Y45.5310515784 Z254.5610859588 A28.2757776395
G1 X242.9982353086 Y45.5136800168 Z254.7438485171 A28.2717732335
G1 X244.6338041056 Y45.4943158308 Z254.9265827927 A28.2665046997
G1 X246.2692824320 Y45.4689249284 Z255.1093132323 A28.2609806341
G1 X247.9047207090 Y45.4406251540 Z255.2920232911 A28.2550548016
G1 X249.5400500199 Y45.4069709584 Z255.4747175040 A28.2483503406
G1 X251.1753175813 Y45.3700938428 Z255.6573904580 A28.2413495580
G1 X252.8104433874 Y45.3277198568 Z255.8400372556 A28.2333345384
G1 X254.4454808197 Y45.2817457817 Z256.0226587505 A28.2250254110
G1 X256.0803323160 Y45.2298751522 Z256.2052535944 A28.2158711207
G1 X257.7150756643 Y45.1744084462 Z256.3878068992 A28.2060595885
G1 X259.3495754191 Y45.1124383459 Z256.5703525767 A28.1960444334
G1 X260.9839675325 Y45.0474201930 Z256.7528109132 A28.1843887567
G1 X262.6180266177 Y44.9747499686 Z256.9353098077 A28.1736650040
G1 X264.2520016620 Y44.8999543106 Z257.1176387065 A28.1598063516
G1 X265.8855121876 Y44.8158300615 Z257.3000989994 A28.1485864082
G1 X267.5190031409 Y44.7310725179 Z257.4822345537 A28.1317979360
G1 X269.1518080482 Y44.6341648177 Z257.6646659561 A28.1202490597
G1 X270.7846239643 Y44.5373268165 Z257.8466384135 A28.1015199273
G1 X272.4166864447 Y44.4285754781 Z258.0289850625 A28.0887655741
G1 X274.0486515883 Y44.3184441113 Z258.2107748861 A28.0681167056
G1 X275.6798895361 Y44.1979230076 Z258.3928344570 A28.0516084393
G1 X277.3107268583 Y44.0722706734 Z258.5746350533 A28.0317832256
G1 X278.9410898901 Y43.9403969507 Z258.7563104461 A28.0109361585
G1 X280.5706040601 Y43.7986204913 Z258.9381420044 A27.9919109189
G1 X282.1999719474 Y43.6549206613 Z259.1193139258 A27.9660786384
G1 X283.8279250750 Y43.4960891001 Z259.3010741292 A27.9466683384
G1 X285.4556007041 Y43.3345409668 Z259.4820813320 A27.9198865746
G1 X287.0822525341 Y43.1628431721 Z259.6631870961 A27.8945742267
G1 X288.7078305941 Y42.9814545459 Z259.8443799816 A27.8700481662
G1 X290.3330181324 Y42.7963817730 Z260.0246892748 A27.8384066967
G1 X291.9563499187 Y42.5957257115 Z260.2055878312 A27.8119904285
G1 X293.5788856188 Y42.3888959951 Z260.3859552089 A27.7814549061
G1 X295.2005122011 Y42.1748158738 Z260.5656760337 A27.7466994926
G1 X296.8199210242 Y41.9446804224 Z260.7459646832 A27.7162859028
G1 X298.4383251753 Y41.7076823017 Z260.9255175922 A27.6809960989
G1 X300.0554339367 Y41.4617781441 Z261.1043882887 A27.6419065922
G1 X301.6698922379 Y41.1991298589 Z261.2837549251 A27.6062797798
G1 X303.2827864042 Y40.9271887957 Z261.4626305570 A27.5678196161
G1 X304.8941523559 Y40.6461433781 Z261.6402118835 A27.5226467844
G1 X306.5024144181 Y40.3478198474 Z261.8180847758 A27.4796874206
G1 X308.1080537714 Y40.0358326678 Z261.9957252534 A27.4358066580
G1 X309.7111644622 Y39.7111705982 Z262.1726583724 A27.3887143236
G1 X311.3115823127 Y39.3733189804 Z262.3481047550 A27.3353743495
G1 X312.9081150890 Y39.0174627468 Z262.5231241973 A27.2809935238
G1 X314.5000218173 Y38.6415529369 Z262.6978564521 A27.2260362852
G1 X316.0876370197 Y38.2479966979 Z262.8716506001 A27.1678731255
G1 X317.6703547815 Y37.8352220855 Z263.0442977503 A27.1060055049
G1 X319.2473579704 Y37.4011374781 Z263.2155769243 A27.0399927162
G1 X320.8176853420 Y36.9434627348 Z263.3854206645 A26.9700350058
G1 X322.3804106877 Y36.4604481630 Z263.5533044551 A26.8948893391
G1 X323.9340473334 Y35.9489343336 Z263.7190501853 A26.8146204181
G1 X325.4770966613 Y35.4063091237 Z263.8822512218 A26.7287005525
G1 X327.0077380573 Y34.8296089718 Z264.0422774690 A26.6362125288
G1 X328.5235527540 Y34.2149862377 Z264.1984678796 A26.5364459402
G1 X330.0216349011 Y33.5582577202 Z264.3499700414 A26.4285577795
G1 X331.4970193464 Y32.8519699544 Z264.4954429186 A26.3112272587
G1 X332.9403976252 Y32.0823076544 Z264.6309629736 A26.1797646494
G1 X334.3477235998 Y31.2484525920 Z264.7552809449 A26.0346729435
G1 X335.6934020653 Y30.3183326528 Z264.8589201705 A25.8684175998
G1 X336.9544145523 Y29.2768838606 Z264.9332870236 A25.6795393960
G1 X338.0633061343 Y28.0766254872 Z264.9656170233 A25.4704709184
G1 X338.8776374067 Y26.6657242783 Z264.9632705027 A25.2619000512
G1 X339.2041664099 Y25.0744178355 Z264.9507150001 A25.0704168191
G4 P1.0000
G1 X339.2041664099 Y24.9921878723 Z264.9507150001 A24.9868540790
G4 P1.0000
G1 X340.2041664099 Y24.9921878723 Z265.9507150001 A24.9868540790
G4 P1.0000
G1 X339.2041664099 Y24.9921878723 Z264.9507150001 A24.9868540790
G1 X339.1965642691 Y24.8501687361 Z264.9431128593 A24.8461677197
G4 P1.0000
G1 X338.7537590496 Y23.3070522645 Z264.9507814591 A24.6544618909
G1 X337.7861553508 Y22.0216281344 Z264.9514543987 A24.4362571841
G1 X336.4872737945 Y21.0592668340 Z264.9287755489 A24.1947237648
G1 X335.0329521906 Y20.3478753780 Z264.8514691438 A23.9759368844
G1 X333.5130530010 Y19.7899601542 Z264.7261639782 A23.8150632858
G1 X331.9567162646 Y19.3438729128 Z264.5807142116 A23.6864943606
G1 X330.3850747088 Y18.9568513814 Z264.4213347873 A23.5913980642
G1 X328.8022186281 Y18.6187942597 Z264.2561174274 A23.5123586753
G1 X327.2113425805 Y18.3210209490 Z264.0866384868 A23.4476717551
G1 X325.6152218003 Y18.0530076915 Z263.9148197106 A23.3920400512
G1 X324.0150792877 Y17.8102404212 Z263.7414219747 A23.3432445496
G1 X322.4118474679 Y17.5888500797 Z263.5668523872 A23.3001324393
G1 X320.8061387306 Y17.3861761350 Z263.3914437392 A23.2615043616
G1 X319.1985299938 Y17.1991355155 Z263.2153304638 A23.2271514133
G1 X317.5890921688 Y17.0285146329 Z263.0388949328 A23.1943839410
G1 X315.9783456068 Y16.8708986905 Z262.8620050454 A23.1646719486
G1 X314.3666085275 Y16.7239090262 Z262.6846295144 A23.1389975518
G1 X312.7540130388 Y16.5866162823 Z262.5070028998 A23.1155701241
G1 X311.1406993878 Y16.4578905471 Z262.3291754435 A23.0940836702
G1 X309.5263981212 Y16.3421298614 Z262.1514246903 A23.0709073545
G1 X307.9116171098 Y16.2335523928 Z261.9733256978 A23.0516220076
G1 X306.2964306715 Y16.1311098604 Z261.7950272076 A23.0350134421
G1 X304.6807151501 Y16.0372257325 Z261.6167427438 A23.0178436841
G1 X303.0645673347 Y15.9512650107 Z261.4383878530 A23.0011644605
G1 X301.4482181951 Y15.8692064016 Z261.2598005680 A22.9884478109
G1 X299.8314839751 Y15.7949317907 Z261.0812744779 A22.9743114908
G1 X298.2144859583 Y15.7268494760 Z260.9026758575 A22.9610632077
G1 X296.5973672246 Y15.6616010374 Z260.7239231132 A22.9512644450
G1 X294.9798889422 Y15.6058108005 Z260.5452863988 A22.9381409450
G1 X293.3623364488 Y15.5525532956 Z260.3664794524 A22.9290802355
G1 X291.7446137052 Y15.5044660535 Z260.1876762078 A22.9199070945
G1 X290.1267236291 Y15.4625789398 Z260.0088759807 A22.9099294206
G1 X288.5087946503 Y15.4220925018 Z259.8299624357 A22.9040316548
G1 X286.8906709348 Y15.3901899214 Z259.6511307755 A22.8942606713
G1 X285.2725471354 Y15.3586180149 Z259.4721788773 A22.8895353017
G1 X283.6543035499 Y15.3335755400 Z259.2932740594 A22.8822436222
G1 X282.0360374999 Y15.3104656161 Z259.1143158235 A22.8774124056
G1 X280.4177083035 Y15.2918421082 Z258.9353633072 A22.8721748096
G1 X278.7993509575 Y15.2763332655 Z258.7563922127 A22.8675466751
G1 X277.1809642959 Y15.2637425888 Z258.5774100004 A22.8640251766
G1 X275.5625567342 Y15.2547194040 Z258.3984236475 A22.8599680360
G1 X273.9441378519 Y15.2474669856 Z258.2194250316 A22.8578290440
G1 X272.3257074334 Y15.2446015705 Z258.0404267893 A22.8539855993
G1 X270.7072731343 Y15.2430783191 Z257.8614209314 A22.8527760023
G1 X269.0888416373 Y15.2455962779 Z257.6824108300 A22.8498406473
G1 X267.4704106232 Y15.2491193321 Z257.5034019542 A22.8494575630
G1 X265.8519928107 Y15.2562636694 Z257.3243849672 A22.8473973000
G1 X264.2335784476 Y15.2643969005 Z257.1453757991 A22.8475786216
G1 X262.6151850423 Y15.2757785195 Z256.9663553189 A22.8462760132
G1 X260.9967995793 Y15.2884209574 Z256.7873464609 A22.8468184262
G1 X259.3784378093 Y15.3036401255 Z256.6083269042 A22.8464173778
G1 X257.7600910201 Y15.3205281258 Z256.4293180213 A22.8472053834
G1 X256.1417645396 Y15.3391345567 Z256.2503041095 A22.8477798612
G1 X254.5234623222 Y15.3598621197 Z256.0712945792 A22.8487373777
G1 X252.9051754381 Y15.3816413000 Z255.8922877465 A22.8501148264
G1 X251.2869309318 Y15.4064836577 Z255.7132735870 A22.8509626838
G1 X249.6686869953 Y15.4312962371 Z255.5342805251 A22.8533807575
G1 X248.0504974310 Y15.4594890836 Z255.3552652612 A22.8544185504
G1 X246.4322996589 Y15.4871716569 Z255.1762825549 A22.8574804272
G1 X244.8141682079 Y15.5185077404 Z254.9972630667 A22.8585160514
G1 X243.1960318481 Y15.5495734034 Z254.8182871523 A22.8619520744
G1 X241.5779483565 Y15.5832586887 Z254.6392775415 A22.8637184482
G1 X239.9598776481 Y15.6175773767 Z254.4603029408 A22.8672195739
G1 X238.3418407331 Y15.6534165332 Z254.2813116585 A22.8699922693
G1 X236.7238432694 Y15.6910381672 Z254.1023290523 A22.8731569689
G1 X235.1058514440 Y15.7288762877 Z253.9233608608 A22.8769973342
G1 X233.4879253151 Y15.7694551789 Z253.7443700524 A22.8798941542
G1 X231.8699898300 Y15.8096437427 Z253.5654163569 A22.8843392733
G1 X230.2521292191 Y15.8527408491 Z253.3864199203 A22.8871240827
G1 X228.6342689392 Y15.8958508154 Z253.2074745420 A22.8918922904
G1 X227.0164553168 Y15.9406575254 Z253.0284994259 A22.8955790572
G1 X225.3986746385 Y15.9866622800 Z252.8495471442 A22.9000962168
G1 X223.7809046031 Y16.0330241414 Z252.6706009055 A22.9048522105
G1 X222.1632053142 Y16.0818127021 Z252.4916344044 A22.9089131774
G1 X220.5454964773 Y16.1302737559 Z252.3127057768 A22.9142732551
G1 X218.9278594524 Y16.1810725529 Z252.1337361588 A22.9182989450
G1 X217.3102262654 Y16.2319962874 Z251.9548158984 A22.9239314100
G1 X215.6926303100 Y16.2840763911 Z251.7758719080 A22.9288268485
G1 X214.0750764964 Y16.3374653658 Z251.5969408485 A22.9341239050
G1 X212.4575187348 Y16.3907305577 Z251.4180282929 A22.9399964086
G1 X210.8400550459 Y16.4467895969 Z251.2390758861 A22.9446853813
G1 X209.2225788748 Y16.5024779308 Z251.0601729919 A22.9508448179
G1 X207.6051554606 Y16.5596706466 Z250.8812364724 A22.9560454179
G1 X205.9877530016 Y16.6174609087 Z250.7023366914 A22.9622936287
G1 X204.3703637604 Y16.6756139919 Z250.5234326019 A22.9684279617
G1 X202.7530383759 Y16.7355257425 Z250.3445146808 A22.9741813589
G1 X201.1357052152 Y16.7952233264 Z250.1656276058 A22.9807842840
G1 X199.5184365522 Y16.8566399157 Z249.9867039869 A22.9864132366
G1 X197.9011772367 Y16.9183056358 Z249.8078250785 A22.9932338186
G1 X196.2839390395 Y16.9805181118 Z249.6289327101 A22.9997059190
G1 X194.6667463726 Y17.0439093751 Z249.4500411587 A23.0061991715
G1 X193.0495487964 Y17.1071735347 Z249.2711690809 A23.0131966018
G1 X191.4324232155 Y17.1722509975 Z249.0922623693 A23.0193217280
G1 X189.8153005610 Y17.2374021655 Z248.9133985765 A23.0265278251
G1 X188.1982052616 Y17.3032243898 Z248.7345173485 A23.0333062159
G1 X186.5811488051 Y17.3699994769 Z248.5556464385 A23.0403377208
G1 X184.9640888070 Y17.4366876856 Z248.3767895766 A23.0477138435
G1 X183.3470897792 Y17.5048385511 Z248.1979068591 A23.0544696972
G1 X181.7300895586 Y17.5729608012 Z248.0190566094 A23.0620044437
G1 X180.1131212111 Y17.6418314470 Z247.8401860450 A23.0690621907
G1 X178.4961866365 Y17.7114950955 Z247.6613331593 A23.0765350430
G1 X176.8792496347 Y17.7811017518 Z247.4824899016 A23.0842339647
G1 X175.2623767300 Y17.8521826473 Z247.3036222595 A23.0913720443
G1 X173.6455000311 Y17.9231762729 Z247.1247856718 A23.0992243756
G1 X172.0286560904 Y17.9949090781 Z246.9459282052 A23.1066055813
G1 X170.4118392213 Y18.0672527480 Z246.7670928837 A23.1144864850
G1 X168.7950210397 Y18.1395667988 Z246.5882627690 A23.1224848774
G1 X167.1782768677 Y18.2135187223 Z246.4094073836 A23.1299240172
G1 X165.5615258079 Y18.2873182146 Z246.2305846919 A23.1380866866
G1 X163.9448113861 Y18.3619134112 Z246.0517386486 A23.1457422036
G1 X162.3281197987 Y18.4370045249 Z245.8729211581 A23.1540178318
G1 X160.7114305766 Y18.5121459925 Z245.6941032849 A23.1622857951
G1 X159.0948074727 Y18.5886986297 Z245.5152672802 A23.1701667748
G1 X157.4781776323 Y18.6651074873 Z245.3364579973 A23.1786180800
G1 X155.8615972986 Y18.7425534760 Z245.1576206565 A23.1864815935
G1 X154.2450398377 Y18.8204786317 Z244.9788193785 A23.1951005943
G1 X152.6284920378 Y18.8986023598 Z244.8000119428 A23.2035930326
G1 X151.0120109519 Y18.9780973168 Z244.6211945605 A23.2118810303
G1 X149.3955238442 Y19.0574685024 Z244.4424010647 A23.2206599877
G1 X147.7790988656 Y19.1380921621 Z244.2635789440 A23.2288618895
G1 X146.1626924033 Y19.2190890951 Z244.0847943658 A23.2378206170
G1 X144.5462999228 Y19.3003633077 Z243.9060008761 A23.2466026170
G1 X142.9299475632 Y19.3824331830 Z243.7272107664 A23.2554516462
G1 X141.3135923783 Y19.4644470275 Z243.5484318638 A23.2645229315
G1 X139.6973180191 Y19.5480368653 Z243.3696242717 A23.2730348082
G1 X138.0810530549 Y19.6318098911 Z243.1908553445 A23.2823005995
G1 X136.4648221100 Y19.7162337781 Z243.0120647346 A23.2911515563
G1 X134.8486318551 Y19.8014361504 Z242.8332996467 A23.3004908010
G1 X133.2324405148 Y19.8866177566 Z242.6545388642 A23.3099124182
G1 X131.6163323590 Y19.9733642111 Z242.4757566669 A23.3189311843
G1 X130.0002186493 Y20.0600061844 Z242.2970044701 A23.3285143124
G1 X128.3841518638 Y20.1475170120 Z242.1182310691 A23.3377048237
G1 X126.7681070564 Y20.2354347847 Z241.9394864929 A23.3474290569
G1 X125.1520756340 Y20.3235973012 Z241.7607333856 A23.3569972997
G1 X123.5360835906 Y20.4124798557 Z241.5819858471 A23.3666673663
G1 X121.9200893888 Y20.5013229426 Z241.4032468706 A23.3764939878
G1 X120.3041689957 Y20.5914980256 Z241.2244880694 A23.3859628422
G1 X118.6882524259 Y20.6817421038 Z241.0457576763 A23.3959443649
G1 X117.0723619955 Y20.7724522695 Z240.8670152844 A23.4057119405
G1 X115.4564880480 Y20.8634563361 Z240.6882896067 A23.4157775431
G1 X113.8406184601 Y20.9545376880 Z240.5095611503 A23.4257938870
G1 X112.2247618398 Y21.0458489157 Z240.3308349919 A23.4358509676
G1 X110.6089046314 Y21.1371497181 Z240.1521111662 A23.4459494014
G1 X108.9930597399 Y21.2286682468 Z239.9733846769 A23.4560007488
G1 X107.3772148540 Y21.3201868743 Z239.7946622146 A23.4661232830
G1 X105.7613934863 Y21.4121194440 Z239.6159321348 A23.4761117407
G1 X104.1455809786 Y21.5042079583 Z239.4372132529 A23.4862972936
G1 X102.5297698446 Y21.5963205680 Z239.2584936473 A23.4964701502
G1 X100.9139602123 Y21.6884595214 Z239.0797750839 A23.5066612898
G1 X99.2981516608 Y21.7806174204 Z238.9010558317 A23.5168403543
G1 X97.6823470097 Y21.8728436862 Z238.7223372094 A23.5270304627
G1 X96.0665422090 Y21.9650673305 Z238.5436191805 A23.5372309693
G1 X94.4507363140 Y22.0572717987 Z238.3649013230 A23.5474344818
G1 X92.8349304788 Y22.1494773163 Z238.1861831800 A23.5576329899
G1 X91.2190994488 Y22.2412401219 Z238.0074699592 A23.5679179896
G1 X89.6032652601 Y22.3329474229 Z237.8287486905 A23.5780615758
G1 X87.9873145688 Y22.4225701758 Z237.6500551894 A23.5887020075
G1 X86.3713243141 Y22.5114850291 Z237.4713167188 A23.5985378273
G1 X84.7550801395 Y22.5955775999 Z237.2926496060 A23.6097288563
G1 X83.1386882705 Y22.6768652397 Z237.1138666958 A23.6187208114
G1 X81.5220394042 Y22.7527098973 Z236.9351646410 A23.6294252128
G1 X79.9051794713 Y22.8240843451 Z236.7563298618 A23.6373186254
G1 X78.2881584558 Y22.8916021718 Z236.5775476075 A23.6464695589
G1 X76.6709781720 Y22.9553068344 Z236.3986773890 A23.6535143561
G1 X75.0537392534 Y23.0174863817 Z236.2198250534 A23.6610242857
G1 X73.4364414705 Y23.0781348422 Z236.0409418843 A23.6677321952
G1 X71.8191116060 Y23.1379163041 Z235.8620668437 A23.6746597732
G1 X70.2017544336 Y23.1969597745 Z235.6831771131 A23.6811903558
G1 X68.5843590502 Y23.2549412468 Z235.5042945500 A23.6879201453
G1 X66.9669407542 Y23.3122859070 Z235.3253980679 A23.6942630868
G1 X65.3494321139 Y23.3670024339 Z235.1465126658 A23.7009283527
G1 X63.7318940135 Y23.4208619545 Z234.9676029194 A23.7068854353
G1 X62.1142693770 Y23.4720511993 Z234.7886990332 A23.7130233497
G1 X60.4966254889 Y23.5226233065 Z234.6097869901 A23.7189242725
G1 X58.8789010038 Y23.5705603949 Z234.4308615251 A23.7243863816
G1 X57.2611396014 Y23.6172074986 Z234.2519403050 A23.7300068845
G1 X55.6433254461 Y23.6620150123 Z234.0730000309 A23.7349629459
G1 X54.0254423878 Y23.7042332909 Z233.8940648050 A23.7401087112
G1 X52.4075255782 Y23.7451494120 Z233.7151201313 A23.7449210244
G1 X50.7895173662 Y23.7822979492 Z233.5361639493 A23.7492589748
G1 X49.1714674363 Y23.8175301917 Z233.3572070803 A23.7535901660
G1 X47.5533791252 Y23.8510051365 Z233.1782364835 A23.7572928305
G1 X45.9352093221 Y23.8802780423 Z232.9992655759 A23.7609794731
G1 X44.3169998803 Y23.9071769079 Z232.8202889258 A23.7643942624
G1 X42.6987475658 Y23.9314129468 Z232.6413060505 A23.7674987691
G1 X41.0804362563 Y23.9513846042 Z232.4623108663 A23.7697135336
G1 X39.4620892525 Y23.9681182142 Z232.2833154277 A23.7719067030
G1 X37.8437124622 Y23.9815694976 Z232.1043158110 A23.7737473202
G1 X36.2253082289 Y23.9912431754 Z231.9253119276 A23.7751430695
G1 X34.6068833173 Y23.9967393687 Z231.7463043503 A23.7758877154
G1 X32.9884487307 Y23.9969846549 Z231.5672957501 A23.7760771823
G1 X31.3700208697 Y23.9925389634 Z231.3882872512 A23.7758294704
G1 X29.7516139671 Y23.9832409727 Z231.2092804692 A23.7750075112
G1 X28.1332453596 Y23.9687309704 Z231.0302775399 A23.7735737103
G1 X26.5149424161 Y23.9481768375 Z230.8512803292 A23.7715344009
G1 X24.8967253649 Y23.9217097274 Z230.6722945383 A23.7686633780
G1 X23.2786172146 Y23.8893185463 Z230.4933208600 A23.7651254990
G1 X21.6606719056 Y23.8496098578 Z230.3143660027 A23.7607376791
G1 X20.0429167677 Y23.8027928858 Z230.1354339115 A23.7555024374
G1 X18.4253661127 Y23.7500235230 Z229.9565136536 A23.7500235230
G4 P1.0000
G1 X18.4098360656 Y24.9999368254 Z229.9409836066 A24.9999162455
G1 X17.4098360656 Y24.9999368254 Z228.9409836066 A24.9999162455
G4 P1.0000
G1 Y55.0000000000 A55.0000000000
G4 P2.0000
G0 Y60.0000000000 A60.0000000000
G0 X17.2598360656 Z228.7909836066
G0 Y50.0000000000 A50.0000000000
G1 X17.2598360656 Y0.0000000000 Z228.7909836066 A0.0000000000
G1 X17.2598360656 Y50.0000000000 Z228.7909836066 A50.0000000000
G0 Y55.0000000000 A55.0000000000
G0 Y60.0000000000 A60.0000000000
G0 X0.0000000000 Z0.0000000000
G0 Y0.0000000000 A0.0000000000
M5
M30