;Generated: 2021-06-01T21:28:59.175644
;[Project]
;Name = JW48
;Units = millimeters
;
;[RootChord]
;Profile = profiles/DS21.COR
;Width = 262
;LeadingEdgeOffset = 0
;Rotation = 0
;RotationPosition = 0.5
;
;[TipChord]
;Profile = profiles/DS21.COR
;Width = 145
;LeadingEdgeOffset = 30.4
;Rotation = 0
;RotationPosition = 0.5
;
;[Wing]
;TipChordSide = right
;Width = 610
;Inverted = no
;VerticalAlignProfiles = default
;Dihedral = 0
;StockLeadingEdge = 0
;StockTrailingEdge = 0.1
;
;[Placement]
;RootChordOffset = 300
;HorizontalOffset = 12
;VerticalOffsetRoot = 25
;RotateWing = no
;
;[Panel]
;Bottom = 0
;Height = 50
;Inset = 0
;Depth = 450
;SafeHeight = 60
;
;[Machine]
;Width = 1490
;Height = 400
;Depth = 490
;Feedrate = 160
;Kerf = 2,4
;
;[Gcode]
;GcodeWireOn = M3 S60
;GcodeWireOff = M5
;AxisMapping = X,Y,Z,A
;ConfigAsComment = yes
;InterpolationPoints = 200
;
;
G17
G21
G90
G64 P0.50
G54
M3 S60
G1 F160.0
G0 Y60.0000000000 A60.0000000000
G0 X0.0000000000 Z211.5004233316
G0 Y55.0000000000 A55.0000000000
G1 X0.0000000000 Y24.9999688594 Z211.5004233316 A24.9995360611
G4 P1.0000
G1 X1.0000000000 Y24.9999688594 Z212.5004233316 A24.9995360611
G4 P1.0000
G4 P1.0000
G1 X1.0000000000 Y26.0163733413 Z212.5004233316 A30.9015226269
G4 P1.0000
G1 X2.5623969693 Y26.2425735767 Z211.1589931200 A30.7637101132
G1 X4.1794993677 Y26.4740721772 Z211.3811858322 A30.7954710114
G1 X5.7967255031 Y26.7047048502 Z211.6033225932 A30.8276233713
G1 X7.4140585127 Y26.9345864661 Z211.8254866111 A30.8595863611
G1 X9.0316544848 Y27.1626096909 Z212.0476433638 A30.8916042712
G1 X10.6495358625 Y27.3886001682 Z212.2698432135 A30.9233201416
G1 X12.2676317779 Y27.6130477894 Z212.4920949560 A30.9546689798
G1 X13.8859270486 Y27.8360546534 Z212.7144064689 A30.9855883720
G1 X15.5044626376 Y28.0573092464 Z212.9367248587 A31.0164598481
G1 X17.1232072033 Y28.2770306615 Z213.1590974632 A31.0469366982
G1 X18.7421434403 Y28.4953348402 Z213.3814969451 A31.0772168226
G1 X20.3612627401 Y28.7122772220 Z213.6039307008 A31.1072438571
G1 X21.9805505137 Y28.9279586582 Z213.8263939456 A31.1370515709
G1 X23.5999983839 Y29.1424355948 Z214.0488952062 A31.1665737783
G1 X25.2196990397 Y29.3549955293 Z214.2714260891 A31.1958713461
G1 X26.8395183815 Y29.5666483500 Z214.4939795665 A31.2249969363
G1 X28.4594694905 Y29.7772892375 Z214.7165576170 A31.2539340293
G1 X30.0795576467 Y29.9868748096 Z214.9391651038 A31.2826437200
G1 X31.6998994197 Y30.1944908822 Z215.1617962288 A31.3111698440
G1 X33.3203820484 Y30.4010026930 Z215.3844662775 A31.3393908199
G1 X34.9409848714 Y30.6065703061 Z215.6071616791 A31.3674107861
G1 X36.5617841521 Y30.8105839981 Z215.8298557412 A31.3954413456
G1 X38.1827582010 Y31.0132010855 Z216.0526238461 A31.4228802138
G1 X39.8038577878 Y31.2148143197 Z216.2754201667 A31.4500877895
G1 X41.4252335569 Y31.4141946347 Z216.4981933813 A31.4774821758
G1 X43.0467241118 Y31.6126360309 Z216.7210556964 A31.5041477422
G1 X44.6683694884 Y31.8098120608 Z216.9439084817 A31.5308871468
G1 X46.2902566622 Y32.0049860458 Z217.1668003765 A31.5573027291
G1 X47.9122212016 Y32.1995178972 Z217.3897566254 A31.5831745565
G1 X49.5344559676 Y32.3917840118 Z217.6126479427 A31.6095908057
G1 X51.1568049660 Y32.5830782930 Z217.8357044639 A31.6346015763
G1 X52.7793972264 Y32.7723043901 Z218.0586846815 A31.6602560556
G1 X54.4021940442 Y32.9597613035 Z218.2817730496 A31.6849751686
G1 X56.0251329913 Y33.1459902777 Z218.5048134672 A31.7101037886
G1 X57.6482037311 Y33.3310658831 Z218.7278438838 A31.7353199311
G1 X59.2713432618 Y33.5155404621 Z218.9507056106 A31.7620084169
G1 X60.8941732159 Y33.7027160642 Z219.1736741645 A31.7877648547
G1 X62.5170305322 Y33.8896585330 Z219.3962962784 A31.8164853496
G1 X64.1392993493 Y34.0816371252 Z219.6191922244 A31.8428625145
G1 X65.7615677769 Y34.2736189761 Z219.8416686887 A31.8727389416
G1 X67.3832487606 Y34.4705014094 Z220.0644785764 A31.8998333593
G1 X69.0049230935 Y34.6674384721 Z220.2871956281 A31.9276902880
G1 X70.6264625595 Y34.8654835909 Z220.5100295767 A31.9545858234
G1 X72.2480324027 Y35.0632781779 Z220.7330643438 A31.9798251069
G1 X73.8698863040 Y35.2587326932 Z220.9559811324 A32.0060267709
G1 X75.4917855816 Y35.4538065449 Z221.1791633020 A32.0300021373
G1 X77.1141022567 Y35.6453816281 Z221.4021384084 A32.0557034579
G1 X78.7364431046 Y35.8367501007 Z221.6253279444 A32.0795720148
G1 X80.3591328869 Y36.0251386892 Z221.8483526209 A32.1048396540
G1 X81.9818207090 Y36.2135443183 Z222.0715975312 A32.1281927844
G1 X83.6048693680 Y36.3988154343 Z222.2946634340 A32.1530930325
G1 X85.2278793375 Y36.5844286201 Z222.5179730421 A32.1758385821
G1 X86.8512779371 Y36.7666080861 Z222.7410809530 A32.2003582473
G1 X88.4745959731 Y36.9495133258 Z222.9645084330 A32.2219990103
G1 X90.0983855508 Y37.1281719847 Z223.1876601735 A32.2461183037
G1 X91.7221129978 Y37.3074058961 Z223.4111284381 A32.2673245037
G1 X93.3462392874 Y37.4829722587 Z223.6343424954 A32.2908682622
G1 X94.9703641223 Y37.6585673812 Z223.8578328369 A32.3118104339
G1 X96.5947882762 Y37.8313544472 Z224.0811330943 A32.3345358766
G1 X98.2192794932 Y38.0035259095 Z224.3046323027 A32.3553411249
G1 X99.8439830236 Y38.1736659397 Z224.5280247850 A32.3771675379
G1 X101.4688258960 Y38.3424872040 Z224.7515606804 A32.3975643606
G1 X103.0938045678 Y38.5099809552 Z224.9750784679 A32.4181381969
G1 X104.7190517816 Y38.6748616601 Z225.1986034408 A32.4385938155
G1 X106.3443226701 Y38.8395055847 Z225.4222167245 A32.4581662086
G1 X107.9699509110 Y39.0005835068 Z225.6457227995 A32.4787790927
G1 X109.5955397135 Y39.1620645817 Z225.8693853135 A32.4977928044
G1 X111.2214625656 Y39.3201374004 Z226.0929249431 A32.5180368735
G1 X112.8473647006 Y39.4784364919 Z226.3166783598 A32.5360380414
G1 X114.4735650886 Y39.6336174985 Z226.5402740009 A32.5556800387
G1 X116.0998534964 Y39.7878947731 Z226.7640350055 A32.5735235716
G1 X117.7263100878 Y39.9403688359 Z226.9876888162 A32.5925164044
G1 X119.3529270961 Y40.0911430186 Z227.2114904547 A32.6098446974
G1 X120.9796048092 Y40.2412501293 Z227.4352713251 A32.6274012053
G1 X122.6065897977 Y40.3879955978 Z227.6590331314 A32.6451079542
G1 X124.2335549686 Y40.5349644122 Z227.8828735473 A32.6619287645
G1 X125.8608256818 Y40.6784995724 Z228.1066365523 A32.6795829717
G1 X127.4881086287 Y40.8219061342 Z228.3305023562 A32.6960418312
G1 X129.1155856632 Y40.9630786224 Z228.5543229610 A32.7129929432
G1 X130.7431506720 Y41.1032531848 Z228.7782770080 A32.7283310353
G1 X132.3708431529 Y41.2419167595 Z229.0021661346 A32.7444324756
G1 X133.9987582180 Y41.3779649152 Z229.2261516475 A32.7592865053
G1 X135.6266789322 Y41.5139439705 Z229.4501335599 A32.7741845770
G1 X137.2549367652 Y41.6458233100 Z229.6741079370 A32.7890795589
G1 X138.8831818967 Y41.7778629158 Z229.8981326965 A32.8033388179
G1 X140.5116621662 Y41.9069564858 Z230.1221668455 A32.8173966415
G1 X142.1402237163 Y42.0350388357 Z230.3462586113 A32.8306704608
G1 X143.7689308926 Y42.1612344349 Z230.5703524758 A32.8438597070
G1 X145.3978388980 Y42.2848347650 Z230.7944933116 A32.8563303403
G1 X147.0267812199 Y42.4079744129 Z231.0186403331 A32.8686985593
G1 X148.6560417556 Y42.5268368369 Z231.2428125420 A32.8805746190
G1 X150.2853022913 Y42.6456992610 Z231.4669847508 A32.8924506787
G1 X151.9148182650 Y42.7609969342 Z231.6912163321 A32.9033269844
G1 X153.5444092635 Y42.8752418575 Z231.9154340304 A32.9143745508
G1 X155.1741485245 Y42.9873371883 Z232.1397179674 A32.9243129958
G1 X156.8040699561 Y43.0967699889 Z232.3639816232 A32.9344703926
G1 X158.4340333458 Y43.2055795092 Z232.5883172806 A32.9434225074
G1 X160.0642864437 Y43.3099583358 Z232.8126243988 A32.9526650485
G1 X161.6945280674 Y43.4145341162 Z233.0369770307 A32.9611263393
G1 X163.3250587681 Y43.5144784963 Z233.2613590566 A32.9688723406
G1 X164.9556417155 Y43.6135749572 Z233.4857077823 A32.9771587739
G1 X166.5863879384 Y43.7099390659 Z233.7101703894 A32.9832116114
G1 X168.2173005248 Y43.8034535678 Z233.9345456887 A32.9907391397
G1 X169.8482696583 Y43.8959948883 Z234.1590425385 A32.9958189975
G1 X171.4794908040 Y43.9839651978 Z234.3834475523 A33.0024731184
G1 X173.1106794597 Y44.0726160530 Z234.6079814436 A33.0064277412
G1 X174.7421882730 Y44.1550866200 Z234.8324292796 A33.0118497657
G1 X176.3736844419 Y44.2378599787 Z235.0569424473 A33.0157752909
G1 X178.0053879295 Y44.3163759834 Z235.2814798164 A33.0188560542
G1 X179.6371930762 Y44.3927784215 Z235.5059655291 A33.0229561573
G1 X181.2690911723 Y44.4671851603 Z235.7305741704 A33.0237831897
G1 X182.9011814884 Y44.5372170160 Z235.9550602979 A33.0273986091
G1 X184.5332765590 Y44.6072635063 Z236.1797056928 A33.0265118370
G1 X186.1656220125 Y44.6710818338 Z236.4042142826 A33.0289640592
G1 X187.7979321015 Y44.7360049681 Z236.6288631511 A33.0270338808
G1 X189.4304981425 Y44.7938971918 Z236.8533998963 A33.0279913240
G1 X191.0630637804 Y44.8519957178 Z237.0780155186 A33.0259911707
G1 X192.6957917776 Y44.9051201386 Z237.3025970561 A33.0246667650
G1 X194.3285901184 Y44.9562162438 Z237.5271835589 A33.0225158520
G1 X195.9614714297 Y45.0044925428 Z237.7517991051 A33.0186757398
G1 X197.5944728983 Y45.0485781878 Z237.9763638846 A33.0161506930
G1 X199.2275012052 Y45.0917676039 Z238.2009937176 A33.0098818960
G1 X200.8606846842 Y45.1284302464 Z238.4255343581 A33.0071046134
G1 X202.4938545462 Y45.1661703468 Z238.6501575513 A32.9985546080
G1 X204.1271874630 Y45.1953552071 Z238.8746773937 A32.9953996270
G1 X205.7605030982 Y45.2262784129 Z239.0992657861 A32.9853492088
G1 X207.3939345396 Y45.2492287634 Z239.3237803679 A32.9803803906
G1 X209.0273742091 Y45.2727359614 Z239.5483195123 A32.9692646612
G1 X210.6608786745 Y45.2897980081 Z239.7728199286 A32.9617573629
G1 X212.2944095489 Y45.3056753349 Z239.9973050849 A32.9499474530
G1 X213.9279695098 Y45.3161519865 Z240.2217719793 A32.9406894445
G1 X215.5615588937 Y45.3238269381 Z240.4461966064 A32.9280793251
G1 X217.1951513475 Y45.3276996858 Z240.6706133925 A32.9166068407
G1 X218.8287601784 Y45.3278177407 Z240.8949706747 A32.9024743240
G1 X220.4623575252 Y45.3249154129 Z241.1193205569 A32.8887509590
G1 X222.0959474623 Y45.3168300215 Z241.3435970552 A32.8731280384
G1 X223.7295185453 Y45.3065330057 Z241.5678608769 A32.8572697768
G1 X225.3630459053 Y45.2900373692 Z241.7920477465 A32.8402117013
G1 X226.9965497321 Y45.2718127231 Z242.0162188809 A32.8227454125
G1 X228.6299672569 Y45.2465995471 Z242.2402967873 A32.8039854872
G1 X230.2633595163 Y45.2200368111 Z242.4643560793 A32.7847395200
G1 X231.8966331036 Y45.1865752505 Z242.6882870631 A32.7634230450
G1 X233.5298705337 Y45.1516473467 Z242.9122108002 A32.7420805384
G1 X235.1629432215 Y45.1093516861 Z243.1359695582 A32.7182262168
G1 X236.7959628401 Y45.0652941322 Z243.3597267875 A32.6946364711
G1 X238.4287681881 Y45.0136136915 Z243.5833051081 A32.6686566065
G1 X240.0615027370 Y44.9598788791 Z243.8068459256 A32.6423268143
G1 X241.6939793182 Y44.8986240786 Z244.0302326988 A32.6143947123
G1 X243.3263587882 Y44.8348481239 Z244.2534981753 A32.5848251433
G1 X244.9584453395 Y44.7638496763 Z244.4766393265 A32.5543506904
G1 X246.5903808300 Y44.6894243136 Z244.6995717412 A32.5212443745
G1 X248.2219918186 Y44.6081780841 Z244.9224750844 A32.4887607433
G1 X249.8533630678 Y44.5221236699 Z245.1450013186 A32.4518288717
G1 X251.4843980410 Y44.4299210859 Z245.3675706641 A32.4164244740
G1 X253.1150734886 Y44.3314102305 Z245.5896641172 A32.3760106040
G1 X254.7455401072 Y44.2292719678 Z245.8116242308 A32.3348005162
G1 X256.3752639347 Y44.1161704806 Z246.0334850818 A32.2938971719
G1 X258.0049271766 Y44.0016878299 Z246.2547815943 A32.2474409150
G1 X259.6336162017 Y43.8744989832 Z246.4763434509 A32.2052891933
G1 X261.2621970000 Y43.7454437832 Z246.6969030285 A32.1538400668
G1 X262.8900054873 Y43.6070355854 Z246.9175128083 A32.1043384374
G1 X264.5171242576 Y43.4608833092 Z247.1377828991 A32.0527395484
G1 X266.1439461717 Y43.3108596092 Z247.3572290130 A31.9951417904
G1 X267.7693348798 Y43.1464863466 Z247.5769670295 A31.9416679169
G1 X269.3944378066 Y42.9789642970 Z247.7956662256 A31.8807325731
G1 X271.0185033934 Y42.8014674171 Z248.0139017735 A31.8180435509
G1 X272.6414222761 Y42.6140389164 Z248.2319838136 A31.7554574771
G1 X274.2638867342 Y42.4221636229 Z248.4488035639 A31.6852734664
G1 X275.8845722186 Y42.2158577747 Z248.6653203260 A31.6152572679
G1 X277.5041856430 Y42.0014004514 Z248.8812833423 A31.5429157489
G1 X279.1229605813 Y41.7802722085 Z249.0961273922 A31.4650962806
G1 X280.7395173286 Y41.5434265764 Z249.3101568964 A31.3849998940
G1 X282.3548076964 Y41.2980753418 Z249.5232525089 A31.3012042716
G1 X283.9688070278 Y41.0440728017 Z249.7352233470 A31.2130318804
G1 X285.5803471293 Y40.7748254566 Z249.9462312996 A31.1222576489
G1 X287.1899593813 Y40.4940494511 Z250.1553179587 A31.0244202565
G1 X288.7977613841 Y40.2027556160 Z250.3626187941 A30.9205682316
G1 X290.4035618714 Y39.9001231900 Z250.5679218572 A30.8103669837
G1 X292.0055809655 Y39.5780725979 Z250.7719495615 A30.6979577281
G1 X293.6047743806 Y39.2420648561 Z250.9735421577 A30.5784912314
G1 X295.2008914368 Y38.8913513269 Z251.1720812797 A30.4505036878
G1 X296.7936266781 Y38.5248961031 Z251.3666865381 A30.3121375218
G1 X298.3824550135 Y38.1411610381 Z251.5572898020 A30.1643412839
G1 X299.9667426458 Y37.7383151135 Z251.7433306329 A30.0065896442
G1 X301.5446681038 Y37.3107560562 Z251.9248264299 A29.8405818096
G1 X303.1167359752 Y36.8613380241 Z252.0999929983 A29.6621719666
G1 X304.6818222586 Y36.3872505784 Z252.2677028796 A29.4703771750
G1 X306.2393432480 Y35.8872630770 Z252.4246024138 A29.2597793219
G1 X307.7879480694 Y35.3585378610 Z252.5694213164 A29.0306458648
G1 X309.3252586938 Y34.7958845592 Z252.6997603540 A28.7818526965
G1 X310.8482858277 Y34.1935710107 Z252.8126198989 A28.5121732485
G1 X312.3556267789 Y33.5501003034 Z252.9019816532 A28.2161483521
G1 X313.8465895138 Y32.8633354892 Z252.9508575274 A27.8775520294
G1 X315.3098737784 Y32.1146221001 Z252.9594742134 A27.5096423654
G1 X316.7367619608 Y31.2923721452 Z252.9144619451 A27.1105213723
G1 X318.1068587905 Y30.3732734531 Z252.8041129855 A26.6876959478
G1 X319.3871092715 Y29.3289263323 Z252.6215536702 A26.2587698561
G1 X320.4946985317 Y28.1058883027 Z252.3932637481 A25.8678393991
G1 X321.2729166510 Y26.6624648766 Z252.1956732561 A25.5614282925
G1 X321.5596205911 Y25.0613462850 Z252.1837612155 A25.3307012030
G4 P1.0000
G1 X321.5596205911 Y24.9964455120 Z252.1837612155 A24.9292261657
G4 P1.0000
G1 X322.5596205911 Y24.9964455120 Z253.1837612155 A24.9292261657
G4 P1.0000
G1 X321.5596205911 Y24.9964455120 Z252.1837612155 A24.9292261657
G1 X321.5534391783 Y24.8790060336 Z252.1478691409 A24.2719513565
G4 P1.0000
G1 X321.1570931638 Y23.3189855362 Z252.1532090324 A24.0513743873
G1 X320.2330175738 Y21.9830280154 Z252.3701955832 A23.7193757305
G1 X318.9550613831 Y20.9575300032 Z252.6277438377 A23.2618094876
G1 X317.4854943642 Y20.2101844952 Z252.8476406825 A22.7243572271
G1 X315.9258876311 Y19.6643781650 Z253.0022632089 A22.1587031965
G1 X314.3280045331 Y19.2600241550 Z253.0749282993 A21.6130419547
G1 X312.7245093081 Y18.9208599909 Z253.0658905867 A21.1374871165
G1 X311.1178232292 Y18.6350428990 Z252.9948358265 A20.7332139428
G1 X309.5133888843 Y18.3735559088 Z252.8745339245 A20.4122777080
G1 X307.9093056381 Y18.1328239487 Z252.7237495527 A20.1558282299
G1 X306.3042666994 Y17.9117376959 Z252.5550713722 A19.9440953666
G1 X304.6980965571 Y17.7078903479 Z252.3745316152 A19.7667668738
G1 X303.0907101233 Y17.5197751977 Z252.1861245109 A19.6152505012
G1 X301.4822349236 Y17.3454213528 Z251.9921328377 A19.4845440894
G1 X299.8728297227 Y17.1829978446 Z251.7940552328 A19.3710365964
G1 X298.2625998213 Y17.0312128694 Z251.5929493816 A19.2717991140
G1 X296.6515699965 Y16.8896901069 Z251.3896554836 A19.1837415668
G1 X295.0395949435 Y16.7604380665 Z251.1848069505 A19.1034789986
G1 X293.4271088913 Y16.6389827579 Z250.9786222456 A19.0314113888
G1 X291.8141612796 Y16.5246938194 Z250.7713889454 A18.9663394518
G1 X290.2007484721 Y16.4176212409 Z250.5633679928 A18.9067384612
G1 X288.5866053968 Y16.3222386395 Z250.3549181474 A18.8486067299
G1 X286.9722177987 Y16.2319631495 Z250.1458466040 A18.7954975681
G1 X285.3576598779 Y16.1455978997 Z249.9360362442 A18.7498346229
G1 X283.7425918532 Y16.0691121790 Z249.7260423443 A18.7044440178
G1 X282.1273368179 Y15.9972521025 Z249.5157243554 A18.6621181578
G1 X280.5119597847 Y15.9286273370 Z249.3050263154 A18.6243155709
G1 X278.8962204721 Y15.8691511550 Z249.0941099240 A18.5878767363
G1 X277.2803895998 Y15.8126997820 Z248.8830017394 A18.5538703200
G1 X275.6643756498 Y15.7616547707 Z248.6717556333 A18.5209704676
G1 X274.0482111598 Y15.7162202275 Z248.4602690374 A18.4912533495
G1 X272.4319883688 Y15.6729787942 Z248.2486722527 A18.4634215885
G1 X270.8155547100 Y15.6380935935 Z248.0370179995 A18.4346279946
G1 X269.1991191667 Y15.6044099785 Z247.8251532252 A18.4105938952
G1 X267.5825618253 Y15.5764744011 Z247.6132762343 A18.3854045518
G1 X265.9659729630 Y15.5515312808 Z247.4012435962 A18.3636446908
G1 X264.3493358595 Y15.5297159310 Z247.1891520742 A18.3431183119
G1 X262.7326412824 Y15.5128809891 Z246.9770119611 A18.3224859000
G1 X261.1159453844 Y15.4970263099 Z246.7647647952 A18.3059432017
G1 X259.4991927385 Y15.4873373218 Z246.5525218115 A18.2869338024
G1 X257.8824568505 Y15.4772458262 Z246.3401745841 A18.2732807643
G1 X256.2656853739 Y15.4732389797 Z246.1278298405 A18.2571846339
G1 X254.6489274159 Y15.4685625445 Z245.9154237295 A18.2452629717
G1 X253.0321559546 Y15.4701908738 Z245.7030041314 A18.2315219547
G1 X251.4153925920 Y15.4713582456 Z245.4905529355 A18.2207060395
G1 X249.7986369642 Y15.4777200428 Z245.2780805829 A18.2091174244
G1 X248.1818855295 Y15.4838266613 Z245.0655946084 A18.1994040518
G1 X246.5651557403 Y15.4944192800 Z244.8530857871 A18.1899615364
G1 X244.9484272436 Y15.5046367493 Z244.6405723129 A18.1820823343
G1 X243.3317328332 Y15.5194234342 Z244.4280385689 A18.1743250324
G1 X241.7150382943 Y15.5339420925 Z244.2155053349 A18.1676309026
G1 X240.0983837252 Y15.5523853191 Z244.0029566528 A18.1613103239
G1 X238.4817317227 Y15.5709902274 Z243.7904086941 A18.1555630992
G1 X236.8651181094 Y15.5925739275 Z243.5778538765 A18.1507127810
G1 X235.2485127306 Y15.6147909329 Z243.3652978516 A18.1461003392
G1 X233.6319467997 Y15.6395928158 Z243.1527393669 A18.1423672968
G1 X232.0154003841 Y15.6657323891 Z242.9401746503 A18.1384730548
G1 X230.3988804689 Y15.6933365666 Z242.7276171557 A18.1357533111
G1 X228.7823894802 Y15.7226702343 Z242.5150502992 A18.1327245953
G1 X227.1659145461 Y15.7527491815 Z242.3025001515 A18.1311682796
G1 X225.5494863849 Y15.7853257662 Z242.0899354876 A18.1291256392
G1 X223.9330594432 Y15.8178821250 Z241.8773913241 A18.1284187256
G1 X222.3166979457 Y15.8536070409 Z241.6648250240 A18.1269092601
G1 X220.7003311078 Y15.8890377631 Z241.4522799074 A18.1265667630
G1 X219.0840276454 Y15.9272444725 Z241.2397237782 A18.1260734770
G1 X217.4677341245 Y15.9658869680 Z241.0271715149 A18.1258079604
G1 X215.8514764250 Y16.0059319102 Z240.8146355203 A18.1265859850
G1 X214.2352538299 Y16.0474406877 Z240.6020777982 A18.1264602389
G1 X212.6190411250 Y16.0892336170 Z240.3895663394 A18.1285284549
G1 X211.0028952147 Y16.1336212351 Z240.1770123082 A18.1289429132
G1 X209.3867369571 Y16.1774937379 Z239.9645072547 A18.1314006624
G1 X207.7706649062 Y16.2244841025 Z239.7519579091 A18.1323156236
G1 X206.1545869808 Y16.2712369969 Z239.5394443099 A18.1346250858
G1 X204.5385592010 Y16.3196748002 Z239.3269245002 A18.1368609508
G1 X202.9225614939 Y16.3691335590 Z239.1144025812 A18.1390664253
G1 X201.3065760693 Y16.4189450786 Z238.9019139513 A18.1425423450
G1 X199.6906588061 Y16.4709751034 Z238.6893826364 A18.1446302908
G1 X198.0747243096 Y16.5224140029 Z238.4769196802 A18.1490630339
G1 X196.4588714860 Y16.5763895614 Z238.2644046688 A18.1518790053
G1 X194.8430162144 Y16.6302704404 Z238.0519327417 A18.1561070847
G1 X193.2272066861 Y16.6854956297 Z237.8394482342 A18.1600179230
G1 X191.6114409277 Y16.7420113688 Z237.6269587456 A18.1638179600
G1 X189.9956733379 Y16.7984486381 Z237.4145047839 A18.1687351762
G1 X188.3799850533 Y16.8571457573 Z237.2020046908 A18.1723431646
G1 X186.7642790793 Y16.9153175222 Z236.9895747656 A18.1780350584
G1 X185.1486318513 Y16.9751071983 Z236.7771073979 A18.1826957560
G1 X183.5330004825 Y17.0353218284 Z236.5646702981 A18.1882369414
G1 X181.9173869982 Y17.0960045614 Z236.3522370895 A18.1939157830
G1 X180.3018358339 Y17.1583429214 Z236.1397841511 A18.1990899457
G1 X178.6862744026 Y17.2203985170 Z235.9273719389 A18.2053857407
G1 X177.0707742757 Y17.2840412812 Z235.7149207269 A18.2106718903
G1 X175.4552717312 Y17.3476084882 Z235.5025276894 A18.2175156075
G1 X173.8398022889 Y17.4120094246 Z235.2901135538 A18.2238279368
G1 X172.2243829758 Y17.4776666719 Z235.0776970747 A18.2301060693
G1 X170.6089583104 Y17.5431853515 Z234.8653018257 A18.2369338534
G1 X168.9935991435 Y17.6103080834 Z234.6528785741 A18.2430854255
G1 X167.3782342442 Y17.6772815758 Z234.4405027625 A18.2504349397
G1 X165.7629018993 Y17.7450360401 Z234.2281062019 A18.2572866915
G1 X164.1475982676 Y17.8134726952 Z234.0157320833 A18.2647031103
G1 X162.5322924188 Y17.8818549617 Z233.8033667593 A18.2723352708
G1 X160.9170563830 Y17.9518733120 Z233.5909775908 A18.2794200844
G1 X159.3018144800 Y18.0217500326 Z233.3786174212 A18.2872011292
G1 X157.6866097261 Y18.0924808414 Z233.1662359537 A18.2944936817
G1 X156.0714273913 Y18.1637206303 Z232.9538863675 A18.3025459329
G1 X154.4562481066 Y18.2350292417 Z232.7415348373 A18.3105543191
G1 X152.8411287404 Y18.3076859840 Z232.5291750391 A18.3183916627
G1 X151.2260044509 Y18.3802294904 Z232.3168347700 A18.3266781755
G1 X149.6109243621 Y18.4537497624 Z232.1044772222 A18.3345879354
G1 X147.9958691074 Y18.5278151817 Z231.8921378974 A18.3429185954
G1 X146.3808218701 Y18.6020547266 Z231.6797934626 A18.3511382742
G1 X144.7658263324 Y18.6774117164 Z231.4674593509 A18.3596034239
G1 X143.1508283106 Y18.7527137351 Z231.2551350923 A18.3682866255
G1 X141.5358738804 Y18.8289438847 Z231.0428029890 A18.3768113048
G1 X139.9209385590 Y18.9055790088 Z230.8304841863 A18.3856312382
G1 X138.3060198698 Y18.9825623232 Z230.6181568158 A18.3942726382
G1 X136.6911592257 Y19.0607562431 Z230.4058380999 A18.4031167642
G1 X135.0762985816 Y19.1389501629 Z230.1935193840 A18.4119608901
G1 X133.4614915150 Y19.2182410072 Z229.9812027024 A18.4208638760
G1 X131.8467006859 Y19.2978632917 Z229.7688950724 A18.4299620471
G1 X130.2319357509 Y19.3780058770 Z229.5565853047 A18.4390238778
G1 X128.6172278533 Y19.4592935885 Z229.3442788528 A18.4481712037
G1 X127.0025199556 Y19.5405813001 Z229.1319724008 A18.4573185296
G1 X125.3878506536 Y19.6226290062 Z228.9196963934 A18.4670911062
G1 X123.7731872144 Y19.7047923058 Z228.7074235287 A18.4769286928
G1 X122.1585680207 Y19.7878162728 Z228.4951430349 A18.4866256816
G1 X120.5440036808 Y19.8719079345 Z228.2828464100 A18.4960156070
G1 X118.9294401971 Y19.9560147145 Z228.0705607033 A18.5056194250
G1 X117.3149455836 Y20.0414327616 Z227.8582889083 A18.5155146497
G1 X115.7004509702 Y20.1268508087 Z227.6460171134 A18.5254098745
G1 X114.0860048667 Y20.2131769494 Z227.4337608141 A18.5356143148
G1 X112.4715887240 Y20.3000657295 Z227.2214955555 A18.5456540824
G1 X110.8571871678 Y20.3872220011 Z227.0092501990 A18.5560726470
G1 X109.2428378432 Y20.4753426935 Z226.7970019691 A18.5664487249
G1 X107.6284857647 Y20.5634123954 Z226.5847646629 A18.5770270653
G1 X106.0141774113 Y20.6522785633 Z226.3725432347 A18.5879077865
G1 X104.3998744227 Y20.7412428238 Z226.1603183872 A18.5987259870
G1 X102.7856155733 Y20.8310012190 Z225.9480993696 A18.6096590371
G1 X101.1713963626 Y20.9214746029 Z225.7358600023 A18.6202262397
G1 X99.5571793452 Y21.0119848133 Z225.5236544436 A18.6314053270
G1 X97.9429946429 Y21.1030696452 Z225.3114526869 A18.6426584813
G1 X96.3288067322 Y21.1940972688 Z225.0992636568 A18.6541385623
G1 X94.7146315010 Y21.2853489768 Z224.8870886034 A18.6658691323
G1 X93.1004572300 Y21.3766177040 Z224.6749139993 A18.6776076700
G1 X91.4862893223 Y21.4679987398 Z224.4627471368 A18.6894837579
G1 X89.8721266606 Y21.5594725077 Z224.2505769308 A18.7013007419
G1 X88.2579771746 Y21.6511779959 Z224.0384064726 A18.7131140278
G1 X86.6438514822 Y21.7433022412 Z223.8262221696 A18.7246837500
G1 X85.0297214087 Y21.8353493446 Z223.6140570744 A18.7365915684
G1 X83.4155917848 Y21.9274041834 Z223.4019001393 A18.7486431266
G1 X81.8014618396 Y22.0194533857 Z223.1897444789 A18.7607170433
G1 X80.1873371605 Y22.1115948902 Z222.9775866029 A18.7727521418
G1 X78.5732124425 Y22.2037357135 Z222.7654299875 A18.7848093382
G1 X76.9590860163 Y22.2958465995 Z222.5532769357 A18.7969289928
G1 X75.3449593329 Y22.3879529795 Z222.3411238830 A18.8090486337
G1 X73.7308118889 Y22.4796945552 Z222.1289834343 A18.8213897842
G1 X72.1166512596 Y22.5712044431 Z221.9168490040 A18.8338366860
G1 X70.5024060829 Y22.6611996960 Z221.7047491250 A18.8469091978
G1 X68.8880609452 Y22.7494063859 Z221.4927079277 A18.8610316824
G1 X67.2735673644 Y22.8347561620 Z221.2806468248 A18.8749261355
G1 X65.6587637968 Y22.9142189401 Z221.0687798400 A18.8925071162
G1 X64.0438780352 Y22.9917402852 Z220.8566601640 A18.9055321609
G1 X62.4285926256 Y23.0607974304 Z220.6447878801 A18.9237967602
G1 X60.8133065928 Y23.1295469715 Z220.4325633374 A18.9347884605
G1 X59.1977380131 Y23.1915317080 Z220.2205028009 A18.9497067963
G1 X57.5821981218 Y23.2541199317 Z220.0081939963 A18.9587336177
G1 X55.9665580315 Y23.3141019086 Z219.7959362925 A18.9690895846
G1 X54.3509168865 Y23.3740318976 Z219.5836020204 A18.9774694594
G1 X52.7352304448 Y23.4327377487 Z219.3712850777 A18.9863176586
G1 X51.1195220651 Y23.4908260296 Z219.1589480852 A18.9946397466
G1 X49.5037764042 Y23.5478781557 Z218.9466158540 A19.0030941742
G1 X47.8879554497 Y23.6027291019 Z218.7343037167 A19.0121762673
G1 X46.2720874908 Y23.6562126785 Z218.5219660831 A19.0205166788
G1 X44.6561442035 Y23.7073523690 Z218.3096398379 A19.0292856323
G1 X43.0401907834 Y23.7581793913 Z218.0972595887 A19.0363881493
G1 X41.4241320923 Y23.8055585794 Z217.8849259813 A19.0450398651
G1 X39.8080604715 Y23.8524504267 Z217.6725393338 A19.0519986906
G1 X38.1919165731 Y23.8968218248 Z217.4601661604 A19.0594273900
G1 X36.5757156040 Y23.9390183968 Z217.2477921722 A19.0669453861
G1 X34.9594863776 Y23.9801531093 Z217.0353752776 A19.0728510935
G1 X33.3431478887 Y24.0167722656 Z216.8229956742 A19.0803406878
G1 X31.7267820390 Y24.0520781118 Z216.6105787646 A19.0864107752
G1 X30.1103710549 Y24.0853174667 Z216.3981426827 A19.0916030597
G1 X28.4938812290 Y24.1144661075 Z216.1857234236 A19.0977633179
G1 X26.8773539751 Y24.1413579194 Z215.9732844721 A19.1031165656
G1 X25.2607875608 Y24.1658826090 Z215.7608191914 A19.1069098140
G1 X23.6441510488 Y24.1853168988 Z215.5483648440 A19.1115864153
G1 X22.0274852410 Y24.2019618654 Z215.3358968521 A19.1155491413
G1 X20.4107899520 Y24.2153367992 Z215.1234200337 A19.1190910800
G1 X18.7940684968 Y24.2251521625 Z214.9109293268 A19.1211705947
G1 X17.1773248060 Y24.2305937813 Z214.6984363602 A19.1228342880
G1 X15.5605718405 Y24.2305937840 Z214.4859402053 A19.1243857560
G1 X13.9438261168 Y24.2261017765 Z214.2734403621 A19.1250611334
G1 X12.3271014554 Y24.2167703075 Z214.0609401675 A19.1249058062
G1 X10.7104151292 Y24.2022396302 Z213.8484430246 A19.1238836643
G1 X9.0937941043 Y24.1817017269 Z213.6359489825 A19.1222194096
G1 X7.4772597143 Y24.1552066310 Z213.4234712332 A19.1192087853
G1 X5.8608334846 Y24.1228396277 Z213.2110105643 A19.1151874835
G1 X4.2445697536 Y24.0831714022 Z212.9985754708 A19.1099952052
G1 X2.6284949328 Y24.0364370388 Z212.7861770672 A19.1034666206
G1 X1.0126277104 Y23.9836256843 Z212.5737455211 A19.0984717151
G4 P1.0000
G1 X1.0000000000 Y24.9999688594 Z212.5004233316 A24.9995360611
G1 X0.0000000000 Y24.9999688594 Z211.5004233316 A24.9995360611
G4 P1.0000
G1 Y55.0000000000 A55.0000000000
G4 P2.0000
G0 Y60.0000000000 A60.0000000000
G0 X0.0836065574 Z206.6987839874
G0 Y50.0000000000 A50.0000000000
G1 X0.0836065574 Y0.0000000000 Z206.6987839874 A0.0000000000
G1 X0.0836065574 Y50.0000000000 Z206.6987839874 A50.0000000000
G0 Y55.0000000000 A55.0000000000
G0 Y60.0000000000 A60.0000000000
G0 X0.0000000000 Z0.0000000000
G0 Y0.0000000000 A0.0000000000
M5
M30