;Generated: 2021-06-05T13:08:22.100821
;[Project]
;Name = JW48_right_1.25
;Units = millimeters
;
;[RootChord]
;Profile = profiles/DS21.COR
;Width = 262
;LeadingEdgeOffset = 0
;Rotation = 0
;RotationPosition = 0.5
;
;[TipChord]
;Profile = profiles/DS21.COR
;Width = 145
;LeadingEdgeOffset = 30.4
;Rotation = 0
;RotationPosition = 0.5
;
;[Wing]
;TipChordSide = left
;Width = 610
;Inverted = no
;VerticalAlignProfiles = default
;Dihedral = 0
;StockLeadingEdge = 0
;StockTrailingEdge = 0.1
;
;[Placement]
;RootChordOffset = 300
;HorizontalOffset = 60
;VerticalOffsetRoot = 25
;RotateWing = no
;
;[Panel]
;Bottom = 0
;Height = 50
;Inset = 0
;Depth = 450
;SafeHeight = 60
;
;[Machine]
;Width = 1490
;Height = 400
;Depth = 490
;Feedrate = 160
;Kerf = 1.25,1.25
;
;[Gcode]
;GcodeWireOn = M3 S60
;GcodeWireOff = M5
;AxisMapping = X,Y,Z,A
;ConfigAsComment = yes
;InterpolationPoints = 200
;
;
G17
G21
G90
G64 P0.50
G54
M3 S60
G1 F160.0
G0 Y60.0000000000 A60.0000000000
G0 X228.9409836066 Z17.4098360656
G0 Y55.0000000000 A55.0000000000
G1 X228.9409836066 Y24.9999162455 Z17.4098360656 A24.9999368254
G4 P1.0000
G1 X229.9409836066 Y24.9999162455 Z18.4098360656 A24.9999368254
G4 P1.0000
G4 P1.0000
G1 X229.9409836066 Y26.2499752786 Z18.4098360656 A26.2499752786
G4 P1.0000
G1 X229.8089729103 Y26.2420241850 Z19.9114588817 A26.4696030045
G1 X229.9899266912 Y26.2678924716 Z21.5306284173 A26.7014280456
G1 X230.1708785679 Y26.2937740710 Z23.1499205411 A26.9323951904
G1 X230.3518418066 Y26.3195761538 Z24.7693238696 A27.1625810525
G1 X230.5328186127 Y26.3452834505 Z26.3889974948 A27.3908563661
G1 X230.7138440323 Y26.3706456364 Z28.0089379790 A27.6172310329
G1 X230.8948899092 Y26.3958612849 Z29.6291037303 A27.8419866862
G1 X231.0759644971 Y26.4208699340 Z31.2494703754 A28.0652905674
G1 X231.2570608037 Y26.4457206605 Z32.8700766130 A28.2868475585
G1 X231.4381855347 Y26.4703634648 Z34.4908931091 A28.5068620947
G1 X231.6193318150 Y26.4948473270 Z36.1119015499 A28.7254574534
G1 X231.8005003796 Y26.5191657860 Z37.7330936542 A28.9426866233
G1 X231.9816890467 Y26.5433340620 Z39.3544547033 A29.1586513780
G1 X232.1628967280 Y26.5673595063 Z40.9759791675 A29.3733865399
G1 X232.3441358001 Y26.5911468990 Z42.5977516075 A29.5862411746
G1 X232.5253873382 Y26.6148390318 Z44.2196456004 A29.7981669593
G1 X232.7066548962 Y26.6384081786 Z45.8416717898 A30.0090775224
G1 X232.8879398821 Y26.6618429801 Z47.4638356282 A30.2189281078
G1 X233.0692510324 Y26.6850745978 Z49.0862529624 A30.4268101320
G1 X233.2505818066 Y26.7081523710 Z50.7088121171 A30.6335803323
G1 X233.4319277715 Y26.7311104472 Z52.3314919782 A30.8394022361
G1 X233.6132901301 Y26.7539388538 Z53.9543674099 A31.0436772367
G1 X233.7946819173 Y26.7765320914 Z55.5774198416 A31.2465377974
G1 X233.9760899121 Y26.7989946080 Z57.2005984171 A31.4483894312
G1 X234.1575167673 Y26.8213046390 Z58.8240510731 A31.6480251407
G1 X234.3389709304 Y26.8433912982 Z60.4476216134 A31.8466965850
G1 X234.5204291157 Y26.8654450569 Z62.0713545948 A32.0440393014
G1 X234.7019299725 Y26.8871455021 Z63.6953125970 A32.2395188784
G1 X234.8834428490 Y26.9087441413 Z65.3193588970 A32.4342653723
G1 X235.0649658383 Y26.9302579886 Z66.9436716538 A32.6267777372
G1 X235.2465311052 Y26.9514121591 Z68.5681048010 A32.8182658788
G1 X235.4280951668 Y26.9725765818 Z70.1927852334 A33.0076502365
G1 X235.6097114695 Y26.9932891819 Z71.8176574518 A33.1953758691
G1 X235.7913146469 Y27.0141153012 Z73.4426881048 A33.3817312273
G1 X235.9729448722 Y27.0347047140 Z75.0678282019 A33.5671287969
G1 X236.1545617616 Y27.0554107510 Z76.6930101277 A33.7521603286
G1 X236.3361274165 Y27.0765638076 Z78.3179492387 A33.9393103908
G1 X236.5176520396 Y27.0980641004 Z79.9428680268 A34.1266404818
G1 X236.6991769270 Y27.1195621361 Z81.5672178609 A34.3188394323
G1 X236.8806210163 Y27.1417337763 Z83.1915473438 A34.5112087956
G1 X237.0620818139 Y27.1637660304 Z84.8153044012 A34.7083533142
G1 X237.2435220106 Y27.1859674909 Z86.4390531698 A34.9055659130
G1 X237.4249682429 Y27.2081193774 Z88.0626790418 A35.1037879361
G1 X237.6064696132 Y27.2298165156 Z89.6863277251 A35.3018218239
G1 X237.7879521152 Y27.2516692669 Z91.3102780999 A35.4973675289
G1 X237.9695172642 Y27.2728286884 Z92.9342526368 A35.6927105372
G1 X238.1510513705 Y27.2942485281 Z94.5586651354 A35.8843794627
G1 X238.3326545089 Y27.3150783383 Z96.1830807514 A36.0760217422
G1 X238.5142303303 Y27.3361416324 Z97.8078664078 A36.2645012194
G1 X238.6958697413 Y27.3566521365 Z99.4326360332 A36.4531200553
G1 X238.8774892832 Y27.3773353655 Z101.0577731180 A36.6385445371
G1 X239.0591426054 Y27.3977193679 Z102.6829066680 A36.8240011523
G1 X239.2408259287 Y27.4178381185 Z104.3083537694 A37.0066855360
G1 X239.4224874472 Y27.4381485232 Z105.9338439808 A37.1889890533
G1 X239.6042571678 Y27.4574841680 Z107.5596329010 A37.3686015961
G1 X239.7859573079 Y27.4774466424 Z109.1855309908 A37.5472306649
G1 X239.9677727560 Y27.4963488044 Z110.8116582430 A37.7237524754
G1 X240.1495164732 Y27.5159105666 Z112.4379462979 A37.8987956264
G1 X240.3313634496 Y27.5345036039 Z114.0643864808 A38.0724115920
G1 X240.5131470369 Y27.5536913264 Z115.6910312644 A38.2441080995
G1 X240.6950288341 Y27.5719393670 Z117.3177618106 A38.4149840221
G1 X240.8768514606 Y27.5907535575 Z118.9447558541 A38.5833387823
G1 X241.0587793439 Y27.6085388057 Z120.5717677658 A38.7515188703
G1 X241.2406453928 Y27.6269285189 Z122.1991504611 A38.9160743481
G1 X241.4225762130 Y27.6446704318 Z123.8265168276 A39.0807931371
G1 X241.6045123291 Y27.6623593786 Z125.4542175673 A39.2421677432
G1 X241.7864190691 Y27.6803421272 Z127.0819643973 A39.4030813846
G1 X241.9684417954 Y27.6971392256 Z128.7099048067 A39.5620161959
G1 X242.1503849143 Y27.7147500965 Z130.3379770290 A39.7196035729
G1 X242.3324560845 Y27.7310211765 Z131.9661794345 A39.8758288547
G1 X242.5144411711 Y27.7481929419 Z133.5946273451 A40.0294854358
G1 X242.6965324594 Y27.7642260447 Z135.2231028853 A40.1828457811
G1 X242.8785542024 Y27.7810047927 Z136.8518787037 A40.3329866352
G1 X243.0606519487 Y27.7969483558 Z138.4806353615 A40.4833380402
G1 X243.2427422316 Y27.8129739343 Z140.1097107754 A40.6301867068
G1 X243.4248026781 Y27.8293273767 Z141.7388330013 A40.7765209661
G1 X243.6069879280 Y27.8442742730 Z143.3681195364 A40.9210034432
G1 X243.7890834364 Y27.8602325651 Z144.9975554847 A41.0638020180
G1 X243.9712900935 Y27.8749071675 Z146.6270587117 A41.2058235719
G1 X244.1534185240 Y27.8904852319 Z148.2567891440 A41.3452210632
G1 X244.3356703015 Y27.9045994738 Z149.8864936758 A41.4849259284
G1 X244.5178374383 Y27.9197181888 Z151.5165705679 A41.6202118052
G1 X244.7000394336 Y27.9344105050 Z153.1466386721 A41.7556051775
G1 X244.8823183251 Y27.9481622055 Z154.7769269117 A41.8883057913
G1 X245.0645222307 Y27.9628311548 Z156.4073328017 A42.0195672734
G1 X245.2468625662 Y27.9757786425 Z158.0378358211 A42.1496031847
G1 X245.4291025252 Y27.9899926711 Z159.6685642691 A42.2767946607
G1 X245.6114813017 Y28.0023944261 Z161.2992867398 A42.4040641694
G1 X245.7937600645 Y28.0161018660 Z162.9303624492 A42.5267221196
G1 X245.9761056443 Y28.0289032231 Z164.5614213140 A42.6496084940
G1 X246.1584877857 Y28.0412087805 Z166.1927448046 A42.7689063682
G1 X246.3408055267 Y28.0543876491 Z167.8241693370 A42.8868340471
G1 X246.5232768846 Y28.0653982098 Z169.4557065060 A43.0031718578
G1 X246.7056316092 Y28.0780550535 Z171.0874619409 A43.1164288359
G1 X246.8881321410 Y28.0885647569 Z172.7192236596 A43.2295932800
G1 X247.0705238557 Y28.1006768865 Z174.3513100862 A43.3379761136
G1 X247.2530045566 Y28.1114164952 Z175.9833740793 A43.4467049609
G1 X247.4354825733 Y28.1221975036 Z177.6157148158 A43.5511653277
G1 X247.6179113428 Y28.1337380984 Z179.2481328194 A43.6544339297
G1 X247.8005065150 Y28.1425781224 Z180.8806767570 A43.7556587354
G1 X247.9829720926 Y28.1535213527 Z182.5134241267 A43.8535820181
G1 X248.1655945972 Y28.1617709123 Z184.1461941082 A43.9511171666
G1 X248.3480965467 Y28.1720898133 Z185.7792669764 A44.0434532365
G1 X248.5307107039 Y28.1803621815 Z187.4123115569 A44.1363052390
G1 X248.7132751886 Y28.1895405139 Z189.0456457997 A44.2238741505
G1 X248.8958441578 Y28.1985967043 Z190.6790162487 A44.3107928793
G1 X249.0785081801 Y28.2058024390 Z192.3125381586 A44.3947630312
G1 X249.2610770086 Y28.2148613649 Z193.9462094242 A44.4758255900
G1 X249.4438002448 Y28.2206860462 Z195.5799298431 A44.5558585810
G1 X249.6264017377 Y28.2290607744 Z197.2138934306 A44.6307981380
G1 X249.8091434375 Y28.2342444245 Z198.8478249975 A44.7064664777
G1 X249.9917757813 Y28.2419169917 Z200.4820646637 A44.7751225482
G1 X250.1744802384 Y28.2477903842 Z202.1162861500 A44.8442321922
G1 X250.3571919712 Y28.2534822497 Z203.7506979043 A44.9085947942
G1 X250.5398679414 Y28.2600242221 Z205.3851860718 A44.9710615698
G1 X250.7226522978 Y28.2635657739 Z207.0197650208 A45.0310152744
G1 X250.9053395803 Y28.2697945852 Z208.6544962755 A45.0867527616
G1 X251.0881500892 Y28.2721737337 Z210.2892485905 A45.1418323157
G1 X251.2708617435 Y28.2776411531 Z211.9241979428 A45.1907563189
G1 X251.4536782083 Y28.2793410480 Z213.5591208722 A45.2406301182
G1 X251.6364115127 Y28.2840302213 Z215.1942610744 A45.2826938371
G1 X251.8192062141 Y28.2861048149 Z216.8293861562 A45.3254038311
G1 X252.0019877171 Y28.2887410655 Z218.4646508407 A45.3621729646
G1 X252.1847662854 Y28.2912380408 Z220.0999550415 A45.3973270551
G1 X252.3675803391 Y28.2918713455 Z221.7353326682 A45.4286248720
G1 X252.5503515235 Y28.2946984361 Z223.3707822075 A45.4561604271
G1 X252.7331829764 Y28.2933762404 Z225.0062594956 A45.4817855802
G1 X252.9159626996 Y28.2956154550 Z226.6418179458 A45.5018230034
G1 X253.0987885492 Y28.2932149932 Z228.2773815079 A45.5213462713
G1 X253.2815766653 Y28.2946099458 Z229.9130150497 A45.5338306423
G1 X253.4643901869 Y28.2910682423 Z231.5486450110 A45.5470107487
G1 X253.6471829786 Y28.2915546351 Z233.1843204107 A45.5513615430
G1 X253.8299770859 Y28.2878102208 Z234.8199954787 A45.5567789273
G1 X254.0127702671 Y28.2870435209 Z236.4556730759 A45.5540635443
G1 X254.1955457999 Y28.2828409086 Z238.0913552836 A45.5516956065
G1 X254.3783293883 Y28.2803987745 Z239.7270032761 A45.5418506386
G1 X254.5610859588 Y28.2757776395 Z241.3626512001 A45.5310515784
G1 X254.7438485171 Y28.2717732335 Z242.9982353086 A45.5136800168
G1 X254.9265827927 Y28.2665046997 Z244.6338041056 A45.4943158308
G1 X255.1093132323 Y28.2609806341 Z246.2692824320 A45.4689249284
G1 X255.2920232911 Y28.2550548016 Z247.9047207090 A45.4406251540
G1 X255.4747175040 Y28.2483503406 Z249.5400500199 A45.4069709584
G1 X255.6573904580 Y28.2413495580 Z251.1753175813 A45.3700938428
G1 X255.8400372556 Y28.2333345384 Z252.8104433874 A45.3277198568
G1 X256.0226587505 Y28.2250254110 Z254.4454808197 A45.2817457817
G1 X256.2052535944 Y28.2158711207 Z256.0803323160 A45.2298751522
G1 X256.3878068992 Y28.2060595885 Z257.7150756643 A45.1744084462
G1 X256.5703525767 Y28.1960444334 Z259.3495754191 A45.1124383459
G1 X256.7528109132 Y28.1843887567 Z260.9839675325 A45.0474201930
G1 X256.9353098077 Y28.1736650040 Z262.6180266177 A44.9747499686
G1 X257.1176387065 Y28.1598063516 Z264.2520016620 A44.8999543106
G1 X257.3000989994 Y28.1485864082 Z265.8855121876 A44.8158300615
G1 X257.4822345537 Y28.1317979360 Z267.5190031409 A44.7310725179
G1 X257.6646659561 Y28.1202490597 Z269.1518080482 A44.6341648177
G1 X257.8466384135 Y28.1015199273 Z270.7846239643 A44.5373268165
G1 X258.0289850625 Y28.0887655741 Z272.4166864447 A44.4285754781
G1 X258.2107748861 Y28.0681167056 Z274.0486515883 A44.3184441113
G1 X258.3928344570 Y28.0516084393 Z275.6798895361 A44.1979230076
G1 X258.5746350533 Y28.0317832256 Z277.3107268583 A44.0722706734
G1 X258.7563104461 Y28.0109361585 Z278.9410898901 A43.9403969507
G1 X258.9381420044 Y27.9919109189 Z280.5706040601 A43.7986204913
G1 X259.1193139258 Y27.9660786384 Z282.1999719474 A43.6549206613
G1 X259.3010741292 Y27.9466683384 Z283.8279250750 A43.4960891001
G1 X259.4820813320 Y27.9198865746 Z285.4556007041 A43.3345409668
G1 X259.6631870961 Y27.8945742267 Z287.0822525341 A43.1628431721
G1 X259.8443799816 Y27.8700481662 Z288.7078305941 A42.9814545459
G1 X260.0246892748 Y27.8384066967 Z290.3330181324 A42.7963817730
G1 X260.2055878312 Y27.8119904285 Z291.9563499187 A42.5957257115
G1 X260.3859552089 Y27.7814549061 Z293.5788856188 A42.3888959951
G1 X260.5656760337 Y27.7466994926 Z295.2005122011 A42.1748158738
G1 X260.7459646832 Y27.7162859028 Z296.8199210242 A41.9446804224
G1 X260.9255175922 Y27.6809960989 Z298.4383251753 A41.7076823017
G1 X261.1043882887 Y27.6419065922 Z300.0554339367 A41.4617781441
G1 X261.2837549251 Y27.6062797798 Z301.6698922379 A41.1991298589
G1 X261.4626305570 Y27.5678196161 Z303.2827864042 A40.9271887957
G1 X261.6402118835 Y27.5226467844 Z304.8941523559 A40.6461433781
G1 X261.8180847758 Y27.4796874206 Z306.5024144181 A40.3478198474
G1 X261.9957252534 Y27.4358066580 Z308.1080537714 A40.0358326678
G1 X262.1726583724 Y27.3887143236 Z309.7111644622 A39.7111705982
G1 X262.3481047550 Y27.3353743495 Z311.3115823127 A39.3733189804
G1 X262.5231241973 Y27.2809935238 Z312.9081150890 A39.0174627468
G1 X262.6978564521 Y27.2260362852 Z314.5000218173 A38.6415529369
G1 X262.8716506001 Y27.1678731255 Z316.0876370197 A38.2479966979
G1 X263.0442977503 Y27.1060055049 Z317.6703547815 A37.8352220855
G1 X263.2155769243 Y27.0399927162 Z319.2473579704 A37.4011374781
G1 X263.3854206645 Y26.9700350058 Z320.8176853420 A36.9434627348
G1 X263.5533044551 Y26.8948893391 Z322.3804106877 A36.4604481630
G1 X263.7190501853 Y26.8146204181 Z323.9340473334 A35.9489343336
G1 X263.8822512218 Y26.7287005525 Z325.4770966613 A35.4063091237
G1 X264.0422774690 Y26.6362125288 Z327.0077380573 A34.8296089718
G1 X264.1984678796 Y26.5364459402 Z328.5235527540 A34.2149862377
G1 X264.3499700414 Y26.4285577795 Z330.0216349011 A33.5582577202
G1 X264.4954429186 Y26.3112272587 Z331.4970193464 A32.8519699544
G1 X264.6309629736 Y26.1797646494 Z332.9403976252 A32.0823076544
G1 X264.7552809449 Y26.0346729435 Z334.3477235998 A31.2484525920
G1 X264.8589201705 Y25.8684175998 Z335.6934020653 A30.3183326528
G1 X264.9332870236 Y25.6795393960 Z336.9544145523 A29.2768838606
G1 X264.9656170233 Y25.4704709184 Z338.0633061343 A28.0766254872
G1 X264.9632705027 Y25.2619000512 Z338.8776374067 A26.6657242783
G1 X264.9507150001 Y25.0704168191 Z339.2041664099 A25.0744178355
G4 P1.0000
G1 X264.9507150001 Y24.9868540790 Z339.2041664099 A24.9921878723
G4 P1.0000
G1 X265.9507150001 Y24.9868540790 Z340.2041664099 A24.9921878723
G4 P1.0000
G1 X264.9507150001 Y24.9868540790 Z339.2041664099 A24.9921878723
G1 X264.9431128593 Y24.8461677197 Z339.1965642691 A24.8501687361
G4 P1.0000
G1 X264.9507814591 Y24.6544618909 Z338.7537590496 A23.3070522645
G1 X264.9514543987 Y24.4362571841 Z337.7861553508 A22.0216281344
G1 X264.9287755489 Y24.1947237648 Z336.4872737945 A21.0592668340
G1 X264.8514691438 Y23.9759368844 Z335.0329521906 A20.3478753780
G1 X264.7261639782 Y23.8150632858 Z333.5130530010 A19.7899601542
G1 X264.5807142116 Y23.6864943606 Z331.9567162646 A19.3438729128
G1 X264.4213347873 Y23.5913980642 Z330.3850747088 A18.9568513814
G1 X264.2561174274 Y23.5123586753 Z328.8022186281 A18.6187942597
G1 X264.0866384868 Y23.4476717551 Z327.2113425805 A18.3210209490
G1 X263.9148197106 Y23.3920400512 Z325.6152218003 A18.0530076915
G1 X263.7414219747 Y23.3432445496 Z324.0150792877 A17.8102404212
G1 X263.5668523872 Y23.3001324393 Z322.4118474679 A17.5888500797
G1 X263.3914437392 Y23.2615043616 Z320.8061387306 A17.3861761350
G1 X263.2153304638 Y23.2271514133 Z319.1985299938 A17.1991355155
G1 X263.0388949328 Y23.1943839410 Z317.5890921688 A17.0285146329
G1 X262.8620050454 Y23.1646719486 Z315.9783456068 A16.8708986905
G1 X262.6846295144 Y23.1389975518 Z314.3666085275 A16.7239090262
G1 X262.5070028998 Y23.1155701241 Z312.7540130388 A16.5866162823
G1 X262.3291754435 Y23.0940836702 Z311.1406993878 A16.4578905471
G1 X262.1514246903 Y23.0709073545 Z309.5263981212 A16.3421298614
G1 X261.9733256978 Y23.0516220076 Z307.9116171098 A16.2335523928
G1 X261.7950272076 Y23.0350134421 Z306.2964306715 A16.1311098604
G1 X261.6167427438 Y23.0178436841 Z304.6807151501 A16.0372257325
G1 X261.4383878530 Y23.0011644605 Z303.0645673347 A15.9512650107
G1 X261.2598005680 Y22.9884478109 Z301.4482181951 A15.8692064016
G1 X261.0812744779 Y22.9743114908 Z299.8314839751 A15.7949317907
G1 X260.9026758575 Y22.9610632077 Z298.2144859583 A15.7268494760
G1 X260.7239231132 Y22.9512644450 Z296.5973672246 A15.6616010374
G1 X260.5452863988 Y22.9381409450 Z294.9798889422 A15.6058108005
G1 X260.3664794524 Y22.9290802355 Z293.3623364488 A15.5525532956
G1 X260.1876762078 Y22.9199070945 Z291.7446137052 A15.5044660535
G1 X260.0088759807 Y22.9099294206 Z290.1267236291 A15.4625789398
G1 X259.8299624357 Y22.9040316548 Z288.5087946503 A15.4220925018
G1 X259.6511307755 Y22.8942606713 Z286.8906709348 A15.3901899214
G1 X259.4721788773 Y22.8895353017 Z285.2725471354 A15.3586180149
G1 X259.2932740594 Y22.8822436222 Z283.6543035499 A15.3335755400
G1 X259.1143158235 Y22.8774124056 Z282.0360374999 A15.3104656161
G1 X258.9353633072 Y22.8721748096 Z280.4177083035 A15.2918421082
G1 X258.7563922127 Y22.8675466751 Z278.7993509575 A15.2763332655
G1 X258.5774100004 Y22.8640251766 Z277.1809642959 A15.2637425888
G1 X258.3984236475 Y22.8599680360 Z275.5625567342 A15.2547194040
G1 X258.2194250316 Y22.8578290440 Z273.9441378519 A15.2474669856
G1 X258.0404267893 Y22.8539855993 Z272.3257074334 A15.2446015705
G1 X257.8614209314 Y22.8527760023 Z270.7072731343 A15.2430783191
G1 X257.6824108300 Y22.8498406473 Z269.0888416373 A15.2455962779
G1 X257.5034019542 Y22.8494575630 Z267.4704106232 A15.2491193321
G1 X257.3243849672 Y22.8473973000 Z265.8519928107 A15.2562636694
G1 X257.1453757991 Y22.8475786216 Z264.2335784476 A15.2643969005
G1 X256.9663553189 Y22.8462760132 Z262.6151850423 A15.2757785195
G1 X256.7873464609 Y22.8468184262 Z260.9967995793 A15.2884209574
G1 X256.6083269042 Y22.8464173778 Z259.3784378093 A15.3036401255
G1 X256.4293180213 Y22.8472053834 Z257.7600910201 A15.3205281258
G1 X256.2503041095 Y22.8477798612 Z256.1417645396 A15.3391345567
G1 X256.0712945792 Y22.8487373777 Z254.5234623222 A15.3598621197
G1 X255.8922877465 Y22.8501148264 Z252.9051754381 A15.3816413000
G1 X255.7132735870 Y22.8509626838 Z251.2869309318 A15.4064836577
G1 X255.5342805251 Y22.8533807575 Z249.6686869953 A15.4312962371
G1 X255.3552652612 Y22.8544185504 Z248.0504974310 A15.4594890836
G1 X255.1762825549 Y22.8574804272 Z246.4322996589 A15.4871716569
G1 X254.9972630667 Y22.8585160514 Z244.8141682079 A15.5185077404
G1 X254.8182871523 Y22.8619520744 Z243.1960318481 A15.5495734034
G1 X254.6392775415 Y22.8637184482 Z241.5779483565 A15.5832586887
G1 X254.4603029408 Y22.8672195739 Z239.9598776481 A15.6175773767
G1 X254.2813116585 Y22.8699922693 Z238.3418407331 A15.6534165332
G1 X254.1023290523 Y22.8731569689 Z236.7238432694 A15.6910381672
G1 X253.9233608608 Y22.8769973342 Z235.1058514440 A15.7288762877
G1 X253.7443700524 Y22.8798941542 Z233.4879253151 A15.7694551789
G1 X253.5654163569 Y22.8843392733 Z231.8699898300 A15.8096437427
G1 X253.3864199203 Y22.8871240827 Z230.2521292191 A15.8527408491
G1 X253.2074745420 Y22.8918922904 Z228.6342689392 A15.8958508154
G1 X253.0284994259 Y22.8955790572 Z227.0164553168 A15.9406575254
G1 X252.8495471442 Y22.9000962168 Z225.3986746385 A15.9866622800
G1 X252.6706009055 Y22.9048522105 Z223.7809046031 A16.0330241414
G1 X252.4916344044 Y22.9089131774 Z222.1632053142 A16.0818127021
G1 X252.3127057768 Y22.9142732551 Z220.5454964773 A16.1302737559
G1 X252.1337361588 Y22.9182989450 Z218.9278594524 A16.1810725529
G1 X251.9548158984 Y22.9239314100 Z217.3102262654 A16.2319962874
G1 X251.7758719080 Y22.9288268485 Z215.6926303100 A16.2840763911
G1 X251.5969408485 Y22.9341239050 Z214.0750764964 A16.3374653658
G1 X251.4180282929 Y22.9399964086 Z212.4575187348 A16.3907305577
G1 X251.2390758861 Y22.9446853813 Z210.8400550459 A16.4467895969
G1 X251.0601729919 Y22.9508448179 Z209.2225788748 A16.5024779308
G1 X250.8812364724 Y22.9560454179 Z207.6051554606 A16.5596706466
G1 X250.7023366914 Y22.9622936287 Z205.9877530016 A16.6174609087
G1 X250.5234326019 Y22.9684279617 Z204.3703637604 A16.6756139919
G1 X250.3445146808 Y22.9741813589 Z202.7530383759 A16.7355257425
G1 X250.1656276058 Y22.9807842840 Z201.1357052152 A16.7952233264
G1 X249.9867039869 Y22.9864132366 Z199.5184365522 A16.8566399157
G1 X249.8078250785 Y22.9932338186 Z197.9011772367 A16.9183056358
G1 X249.6289327101 Y22.9997059190 Z196.2839390395 A16.9805181118
G1 X249.4500411587 Y23.0061991715 Z194.6667463726 A17.0439093751
G1 X249.2711690809 Y23.0131966018 Z193.0495487964 A17.1071735347
G1 X249.0922623693 Y23.0193217280 Z191.4324232155 A17.1722509975
G1 X248.9133985765 Y23.0265278251 Z189.8153005610 A17.2374021655
G1 X248.7345173485 Y23.0333062159 Z188.1982052616 A17.3032243898
G1 X248.5556464385 Y23.0403377208 Z186.5811488051 A17.3699994769
G1 X248.3767895766 Y23.0477138435 Z184.9640888070 A17.4366876856
G1 X248.1979068591 Y23.0544696972 Z183.3470897792 A17.5048385511
G1 X248.0190566094 Y23.0620044437 Z181.7300895586 A17.5729608012
G1 X247.8401860450 Y23.0690621907 Z180.1131212111 A17.6418314470
G1 X247.6613331593 Y23.0765350430 Z178.4961866365 A17.7114950955
G1 X247.4824899016 Y23.0842339647 Z176.8792496347 A17.7811017518
G1 X247.3036222595 Y23.0913720443 Z175.2623767300 A17.8521826473
G1 X247.1247856718 Y23.0992243756 Z173.6455000311 A17.9231762729
G1 X246.9459282052 Y23.1066055813 Z172.0286560904 A17.9949090781
G1 X246.7670928837 Y23.1144864850 Z170.4118392213 A18.0672527480
G1 X246.5882627690 Y23.1224848774 Z168.7950210397 A18.1395667988
G1 X246.4094073836 Y23.1299240172 Z167.1782768677 A18.2135187223
G1 X246.2305846919 Y23.1380866866 Z165.5615258079 A18.2873182146
G1 X246.0517386486 Y23.1457422036 Z163.9448113861 A18.3619134112
G1 X245.8729211581 Y23.1540178318 Z162.3281197987 A18.4370045249
G1 X245.6941032849 Y23.1622857951 Z160.7114305766 A18.5121459925
G1 X245.5152672802 Y23.1701667748 Z159.0948074727 A18.5886986297
G1 X245.3364579973 Y23.1786180800 Z157.4781776323 A18.6651074873
G1 X245.1576206565 Y23.1864815935 Z155.8615972986 A18.7425534760
G1 X244.9788193785 Y23.1951005943 Z154.2450398377 A18.8204786317
G1 X244.8000119428 Y23.2035930326 Z152.6284920378 A18.8986023598
G1 X244.6211945605 Y23.2118810303 Z151.0120109519 A18.9780973168
G1 X244.4424010647 Y23.2206599877 Z149.3955238442 A19.0574685024
G1 X244.2635789440 Y23.2288618895 Z147.7790988656 A19.1380921621
G1 X244.0847943658 Y23.2378206170 Z146.1626924033 A19.2190890951
G1 X243.9060008761 Y23.2466026170 Z144.5462999228 A19.3003633077
G1 X243.7272107664 Y23.2554516462 Z142.9299475632 A19.3824331830
G1 X243.5484318638 Y23.2645229315 Z141.3135923783 A19.4644470275
G1 X243.3696242717 Y23.2730348082 Z139.6973180191 A19.5480368653
G1 X243.1908553445 Y23.2823005995 Z138.0810530549 A19.6318098911
G1 X243.0120647346 Y23.2911515563 Z136.4648221100 A19.7162337781
G1 X242.8332996467 Y23.3004908010 Z134.8486318551 A19.8014361504
G1 X242.6545388642 Y23.3099124182 Z133.2324405148 A19.8866177566
G1 X242.4757566669 Y23.3189311843 Z131.6163323590 A19.9733642111
G1 X242.2970044701 Y23.3285143124 Z130.0002186493 A20.0600061844
G1 X242.1182310691 Y23.3377048237 Z128.3841518638 A20.1475170120
G1 X241.9394864929 Y23.3474290569 Z126.7681070564 A20.2354347847
G1 X241.7607333856 Y23.3569972997 Z125.1520756340 A20.3235973012
G1 X241.5819858471 Y23.3666673663 Z123.5360835906 A20.4124798557
G1 X241.4032468706 Y23.3764939878 Z121.9200893888 A20.5013229426
G1 X241.2244880694 Y23.3859628422 Z120.3041689957 A20.5914980256
G1 X241.0457576763 Y23.3959443649 Z118.6882524259 A20.6817421038
G1 X240.8670152844 Y23.4057119405 Z117.0723619955 A20.7724522695
G1 X240.6882896067 Y23.4157775431 Z115.4564880480 A20.8634563361
G1 X240.5095611503 Y23.4257938870 Z113.8406184601 A20.9545376880
G1 X240.3308349919 Y23.4358509676 Z112.2247618398 A21.0458489157
G1 X240.1521111662 Y23.4459494014 Z110.6089046314 A21.1371497181
G1 X239.9733846769 Y23.4560007488 Z108.9930597399 A21.2286682468
G1 X239.7946622146 Y23.4661232830 Z107.3772148540 A21.3201868743
G1 X239.6159321348 Y23.4761117407 Z105.7613934863 A21.4121194440
G1 X239.4372132529 Y23.4862972936 Z104.1455809786 A21.5042079583
G1 X239.2584936473 Y23.4964701502 Z102.5297698446 A21.5963205680
G1 X239.0797750839 Y23.5066612898 Z100.9139602123 A21.6884595214
G1 X238.9010558317 Y23.5168403543 Z99.2981516608 A21.7806174204
G1 X238.7223372094 Y23.5270304627 Z97.6823470097 A21.8728436862
G1 X238.5436191805 Y23.5372309693 Z96.0665422090 A21.9650673305
G1 X238.3649013230 Y23.5474344818 Z94.4507363140 A22.0572717987
G1 X238.1861831800 Y23.5576329899 Z92.8349304788 A22.1494773163
G1 X238.0074699592 Y23.5679179896 Z91.2190994488 A22.2412401219
G1 X237.8287486905 Y23.5780615758 Z89.6032652601 A22.3329474229
G1 X237.6500551894 Y23.5887020075 Z87.9873145688 A22.4225701758
G1 X237.4713167188 Y23.5985378273 Z86.3713243141 A22.5114850291
G1 X237.2926496060 Y23.6097288563 Z84.7550801395 A22.5955775999
G1 X237.1138666958 Y23.6187208114 Z83.1386882705 A22.6768652397
G1 X236.9351646410 Y23.6294252128 Z81.5220394042 A22.7527098973
G1 X236.7563298618 Y23.6373186254 Z79.9051794713 A22.8240843451
G1 X236.5775476075 Y23.6464695589 Z78.2881584558 A22.8916021718
G1 X236.3986773890 Y23.6535143561 Z76.6709781720 A22.9553068344
G1 X236.2198250534 Y23.6610242857 Z75.0537392534 A23.0174863817
G1 X236.0409418843 Y23.6677321952 Z73.4364414705 A23.0781348422
G1 X235.8620668437 Y23.6746597732 Z71.8191116060 A23.1379163041
G1 X235.6831771131 Y23.6811903558 Z70.2017544336 A23.1969597745
G1 X235.5042945500 Y23.6879201453 Z68.5843590502 A23.2549412468
G1 X235.3253980679 Y23.6942630868 Z66.9669407542 A23.3122859070
G1 X235.1465126658 Y23.7009283527 Z65.3494321139 A23.3670024339
G1 X234.9676029194 Y23.7068854353 Z63.7318940135 A23.4208619545
G1 X234.7886990332 Y23.7130233497 Z62.1142693770 A23.4720511993
G1 X234.6097869901 Y23.7189242725 Z60.4966254889 A23.5226233065
G1 X234.4308615251 Y23.7243863816 Z58.8789010038 A23.5705603949
G1 X234.2519403050 Y23.7300068845 Z57.2611396014 A23.6172074986
G1 X234.0730000309 Y23.7349629459 Z55.6433254461 A23.6620150123
G1 X233.8940648050 Y23.7401087112 Z54.0254423878 A23.7042332909
G1 X233.7151201313 Y23.7449210244 Z52.4075255782 A23.7451494120
G1 X233.5361639493 Y23.7492589748 Z50.7895173662 A23.7822979492
G1 X233.3572070803 Y23.7535901660 Z49.1714674363 A23.8175301917
G1 X233.1782364835 Y23.7572928305 Z47.5533791252 A23.8510051365
G1 X232.9992655759 Y23.7609794731 Z45.9352093221 A23.8802780423
G1 X232.8202889258 Y23.7643942624 Z44.3169998803 A23.9071769079
G1 X232.6413060505 Y23.7674987691 Z42.6987475658 A23.9314129468
G1 X232.4623108663 Y23.7697135336 Z41.0804362563 A23.9513846042
G1 X232.2833154277 Y23.7719067030 Z39.4620892525 A23.9681182142
G1 X232.1043158110 Y23.7737473202 Z37.8437124622 A23.9815694976
G1 X231.9253119276 Y23.7751430695 Z36.2253082289 A23.9912431754
G1 X231.7463043503 Y23.7758877154 Z34.6068833173 A23.9967393687
G1 X231.5672957501 Y23.7760771823 Z32.9884487307 A23.9969846549
G1 X231.3882872512 Y23.7758294704 Z31.3700208697 A23.9925389634
G1 X231.2092804692 Y23.7750075112 Z29.7516139671 A23.9832409727
G1 X231.0302775399 Y23.7735737103 Z28.1332453596 A23.9687309704
G1 X230.8512803292 Y23.7715344009 Z26.5149424161 A23.9481768375
G1 X230.6722945383 Y23.7686633780 Z24.8967253649 A23.9217097274
G1 X230.4933208600 Y23.7651254990 Z23.2786172146 A23.8893185463
G1 X230.3143660027 Y23.7607376791 Z21.6606719056 A23.8496098578
G1 X230.1354339115 Y23.7555024374 Z20.0429167677 A23.8027928858
G1 X229.9565136536 Y23.7500235230 Z18.4253661127 A23.7500235230
G4 P1.0000
G1 X229.9409836066 Y24.9999162455 Z18.4098360656 A24.9999368254
G1 X228.9409836066 Y24.9999162455 Z17.4098360656 A24.9999368254
G4 P1.0000
G1 Y55.0000000000 A55.0000000000
G4 P2.0000
G0 Y60.0000000000 A60.0000000000
G0 X228.7909836066 Z17.2598360656
G0 Y50.0000000000 A50.0000000000
G1 X228.7909836066 Y0.0000000000 Z17.2598360656 A0.0000000000
G1 X228.7909836066 Y50.0000000000 Z17.2598360656 A50.0000000000
G0 Y55.0000000000 A55.0000000000
G0 Y60.0000000000 A60.0000000000
G0 X0.0000000000 Z0.0000000000
G0 Y0.0000000000 A0.0000000000
M5
M30